nodes/luts/Cinematic1.cube
LUT_3D_SIZE 6
-0.006115 -0.003687 0.002159
0.210851 0.006925 -0.000537
0.435442 0.021632 0.012881
0.668190 0.059851 0.033058
0.800357 0.060683 0.033500
0.933920 0.060627 0.033485
0.009519 0.172769 0.012826
0.174058 0.165810 -0.010163
0.416477 0.156797 0.008924
0.660723 0.192858 0.032258
0.800516 0.190887 0.033591
0.933543 0.189375 0.033348
0.042574 0.344121 0.035603
0.169536 0.341536 0.034112
0.382445 0.353177 -0.007412
0.663116 0.368436 0.032173
0.817959 0.368016 0.038821
0.950517 0.364982 0.038690
0.077072 0.531199 0.058619
0.204863 0.527152 0.057247
0.352784 0.533198 0.051046
0.616818 0.578585 0.032990
0.854029 0.579586 0.022919
0.984400 0.572738 0.024152
0.111749 0.737773 0.096231
0.240570 0.735214 0.094572
0.371116 0.730196 0.092584
0.582457 0.746691 0.075270
0.841831 0.800152 0.042136
0.983466 0.810862 0.034971
0.117954 0.879285 0.101248
0.243462 0.879284 0.101353
0.347981 0.878836 0.101313
0.520025 0.898986 0.093880
0.811980 0.933222 0.085265
0.975510 0.951237 0.079133
-0.052898 -0.103912 0.205576
0.165772 -0.103661 0.191492
0.434081 -0.104185 0.093731
0.679690 -0.100240 0.163191
0.799764 -0.116813 0.160549
0.927653 -0.126552 0.162403
0.010003 0.178809 0.168281
0.109555 0.175707 0.172217
0.416465 0.160991 0.156935
0.658090 0.196803 0.174290
0.802369 0.196378 0.172386
0.935293 0.193868 0.170894
0.038202 0.344980 0.173121
0.166026 0.343073 0.173504
0.380918 0.352096 0.136606
0.661771 0.369193 0.162459
0.818439 0.369411 0.168625
0.951055 0.366717 0.168742
0.076348 0.529784 0.188154
0.203286 0.524419 0.186268
0.353267 0.531287 0.179969
0.613781 0.575631 0.162555
0.854082 0.579417 0.152970
0.984570 0.573316 0.153963
0.111312 0.736821 0.225603
0.239468 0.733087 0.223573
0.371239 0.728894 0.221829
0.582595 0.744958 0.203963
0.841099 0.798421 0.170938
0.983921 0.810819 0.164140
0.117825 0.879255 0.222970
0.246416 0.879243 0.224967
0.358173 0.879423 0.229886
0.524448 0.899116 0.221300
0.811773 0.933033 0.213436
0.975724 0.951169 0.207106
-0.024624 -0.100558 0.405262
0.178885 -0.100060 0.393976
0.392652 -0.100292 0.401496
0.661917 -0.096466 0.372777
0.784796 -0.112256 0.363664
0.913059 -0.122583 0.360676
0.037379 0.189187 0.367844
0.178854 0.183937 0.369224
0.347978 0.180799 0.375765
0.648948 0.199698 0.355691
0.791716 0.203039 0.351961
0.924951 0.200774 0.348187
0.038724 0.357014 0.338727
0.166348 0.352062 0.334694
0.310225 0.362643 0.351690
0.641282 0.374147 0.359139
0.807370 0.376212 0.360241
0.940612 0.373726 0.357499
0.069284 0.536258 0.357612
0.196628 0.530681 0.354582
0.339174 0.540451 0.364668
0.612845 0.576196 0.327010
0.850268 0.575677 0.326213
0.980167 0.570968 0.325243
0.103817 0.740269 0.379599
0.232212 0.737118 0.378310
0.366142 0.736163 0.382687
0.569230 0.742477 0.348723
0.838433 0.798442 0.318092
0.984576 0.811404 0.311811
0.112593 0.882688 0.358063
0.241491 0.882880 0.361045
0.365611 0.884689 0.364026
0.520642 0.897176 0.346255
0.813073 0.932804 0.333397
0.977837 0.951171 0.322523
0.075133 -0.081962 0.563961
0.216135 -0.080934 0.572135
0.394244 -0.058342 0.610722
0.677862 -0.059907 0.665625
0.776231 -0.052248 0.633842
0.900026 -0.081247 0.627554
0.080639 0.228496 0.565175
0.217606 0.230675 0.572524
0.378631 0.232557 0.593886
0.642119 0.229558 0.631144
0.776359 0.238450 0.598082
0.909525 0.236031 0.591141
0.079226 0.393240 0.559520
0.206656 0.388245 0.551214
0.358676 0.389628 0.574676
0.612748 0.394622 0.615863
0.788526 0.399441 0.582308
0.922515 0.395815 0.576909
0.068229 0.557041 0.535497
0.196242 0.551275 0.529645
0.338795 0.557711 0.536634
0.553135 0.583679 0.584639
0.814126 0.576457 0.581057
0.944961 0.571790 0.574656
0.108533 0.742319 0.570489
0.236696 0.739030 0.566947
0.372321 0.739927 0.567232
0.548399 0.756555 0.587148
0.837191 0.802039 0.559395
0.987891 0.811180 0.546915
0.110959 0.888929 0.556325
0.239659 0.888815 0.553582
0.362633 0.890266 0.546001
0.509230 0.914243 0.562421
0.782354 0.939013 0.533104
0.966035 0.959407 0.508631
0.076614 -0.090528 0.681800
0.216118 -0.089747 0.689659
0.389060 -0.072042 0.727318
0.659418 -0.049426 0.771793
0.842688 -0.134075 0.835320
0.969817 -0.140017 0.836011
0.080520 0.226159 0.694321
0.218779 0.230914 0.705665
0.381169 0.234375 0.730952
0.613837 0.252770 0.749280
0.835241 0.173463 0.827336
0.969115 0.173090 0.827334
0.085666 0.397750 0.708490
0.215490 0.396910 0.708875
0.377030 0.408449 0.743067
0.615306 0.414415 0.772249
0.841722 0.364232 0.836351
0.973034 0.364875 0.833572
0.090162 0.570108 0.701757
0.220193 0.567636 0.700986
0.371277 0.578254 0.719590
0.595541 0.606306 0.790062
0.849919 0.589502 0.843027
0.978778 0.585321 0.839209
0.098459 0.756740 0.735473
0.227311 0.754351 0.733185
0.363199 0.752850 0.732757
0.550670 0.768874 0.757887
0.813422 0.799578 0.817359
0.967388 0.799599 0.825404
0.103812 0.905738 0.745614
0.232562 0.905655 0.744448
0.353473 0.905047 0.739435
0.512247 0.926836 0.758204
0.775886 0.962277 0.799493
0.962682 0.970598 0.801708
0.079832 -0.090475 0.827277
0.219101 -0.090338 0.836123
0.392170 -0.072398 0.874297
0.644134 0.040771 0.898997
0.843199 -0.136880 0.976013
0.970729 -0.141306 0.973702
0.083970 0.229069 0.840707
0.222277 0.234283 0.852667
0.384968 0.237397 0.878397
0.613719 0.252407 0.894297
0.835223 0.173346 0.970267
0.969095 0.172968 0.970264
0.087559 0.399867 0.857723
0.217506 0.399156 0.858000
0.380506 0.411511 0.889704
0.615488 0.414511 0.915175
0.841702 0.363169 0.979996
0.972949 0.363940 0.976890
0.095385 0.570842 0.847237
0.225368 0.568794 0.846756
0.376761 0.580334 0.868505
0.594668 0.605579 0.931351
0.849982 0.588245 0.986983
0.978605 0.584349 0.982626
0.097771 0.757285 0.878043
0.226394 0.755055 0.875732
0.363115 0.754500 0.876466
0.557475 0.770984 0.906969
0.810277 0.797339 0.958628
0.973870 0.802355 0.977445
0.101449 0.892639 0.883369
0.231437 0.892640 0.883358
0.359924 0.892310 0.882807
0.547991 0.913092 0.909389
0.785240 0.943898 0.953439
0.961138 0.950730 0.966306
