nodes/luts/Cinematic1.cube
LUT_3D_SIZE 16
-0.006115 -0.003687 0.002159
0.023492 -0.002119 0.003410
0.135174 -0.002951 -0.001851
0.210851 0.006925 -0.000537
0.290889 -0.003470 -0.002544
0.357112 0.007323 -0.005128
0.435442 0.021632 0.012881
0.526863 0.039200 0.022411
0.607302 0.052776 0.029539
0.668190 0.059851 0.033058
0.714533 0.061004 0.033659
0.757024 0.060683 0.033500
0.800357 0.060683 0.033500
0.843691 0.060683 0.033500
0.886482 0.060693 0.033500
0.933920 0.060627 0.033485
-0.004545 0.033517 -0.000783
0.023387 0.032892 0.002111
0.123263 0.033184 -0.002201
0.203003 0.039070 -0.001534
0.284668 0.036175 -0.002078
0.352242 0.037158 -0.006130
0.428549 0.061626 0.011085
0.518980 0.079350 0.020885
0.604507 0.094961 0.028960
0.667161 0.102702 0.032863
0.714791 0.104422 0.033705
0.757024 0.104016 0.033500
0.800357 0.104016 0.033500
0.843691 0.104016 0.033500
0.886482 0.104026 0.033500
0.933920 0.103960 0.033485
0.002545 0.111985 0.005053
0.028921 0.110195 0.004665
0.069972 0.105957 -0.003967
0.192121 0.099659 -0.004473
0.277850 0.082415 -0.001645
0.348185 0.090986 -0.005980
0.420551 0.104722 0.009088
0.506962 0.118618 0.018675
0.597682 0.135352 0.027676
0.663399 0.143490 0.032053
0.714972 0.146777 0.033633
0.756784 0.146560 0.033379
0.800223 0.146845 0.033420
0.843618 0.146999 0.033444
0.886416 0.147103 0.033459
0.933831 0.147081 0.033452
0.009519 0.172769 0.012826
0.043679 0.171790 0.012208
0.065097 0.170518 0.012424
0.174058 0.165810 -0.010163
0.266773 0.159754 -0.005582
0.342871 0.149709 -0.005597
0.416477 0.156797 0.008924
0.500126 0.168723 0.017819
0.590793 0.183356 0.026935
0.660723 0.192858 0.032258
0.717679 0.196460 0.034801
0.757542 0.191831 0.033768
0.800516 0.190887 0.033591
0.843586 0.190051 0.033461
0.886126 0.189411 0.033349
0.933543 0.189375 0.033348
0.020098 0.227895 0.021783
0.062472 0.227247 0.021381
0.095073 0.226690 0.020892
0.148059 0.223922 0.016553
0.248190 0.223439 -0.011949
0.335454 0.221408 -0.006869
0.412513 0.219879 0.008489
0.495558 0.223670 0.017149
0.587104 0.238709 0.026836
0.660371 0.249441 0.033311
0.723870 0.255777 0.037289
0.763557 0.251476 0.036350
0.805825 0.249453 0.036014
0.848637 0.248096 0.035815
0.890933 0.246873 0.035625
0.938377 0.246728 0.035593
0.031758 0.285978 0.028835
0.074440 0.285140 0.028543
0.114774 0.283447 0.028159
0.158273 0.284201 0.027544
0.228076 0.280528 0.009834
0.316821 0.286717 -0.011973
0.406220 0.291866 0.005809
0.491995 0.291056 0.015226
0.583478 0.298128 0.026090
0.661003 0.307604 0.033629
0.725570 0.313019 0.038046
0.769800 0.310328 0.038209
0.811537 0.307900 0.037878
0.854421 0.306661 0.037733
0.896824 0.305552 0.037619
0.944426 0.305397 0.037595
0.042574 0.344121 0.035603
0.085263 0.343434 0.035214
0.127034 0.342157 0.034681
0.169536 0.341536 0.034112
0.216638 0.341543 0.031505
0.303445 0.339386 -0.014643
0.382445 0.353177 -0.007412
0.484555 0.365028 0.012124
0.581314 0.367592 0.022937
0.663116 0.368436 0.032173
0.726044 0.371976 0.037212
0.777392 0.371487 0.039203
0.817959 0.368016 0.038821
0.860667 0.366517 0.038751
0.902798 0.365195 0.038711
0.950517 0.364982 0.038690
0.054659 0.403005 0.042215
0.097498 0.402183 0.041854
0.140008 0.400945 0.041323
0.180401 0.398603 0.040758
0.227991 0.400233 0.039555
0.282250 0.399298 0.033338
0.372980 0.402174 -0.011661
0.452613 0.423402 0.014548
0.568707 0.442117 0.017436
0.666731 0.441821 0.028066
0.729604 0.436847 0.033263
0.785843 0.436285 0.037834
0.826478 0.432211 0.038177
0.868735 0.430298 0.038247
0.910780 0.428661 0.038355
0.958502 0.428445 0.038342
0.065604 0.466099 0.050019
0.108384 0.465160 0.049723
0.150971 0.463939 0.049314
0.192455 0.461609 0.048615
0.236048 0.460675 0.047937
0.287557 0.463817 0.044749
0.355907 0.463688 0.033000
0.443045 0.470168 0.018019
0.531823 0.498501 0.024542
0.655670 0.521767 0.018401
0.734606 0.512332 0.027102
0.796438 0.506800 0.030466
0.838649 0.501220 0.033285
0.879870 0.498737 0.033981
0.921641 0.496634 0.034532
0.969328 0.496317 0.034601
0.077072 0.531199 0.058619
0.119922 0.530304 0.058315
0.162641 0.529164 0.057945
0.204863 0.527152 0.057247
0.245716 0.524353 0.056874
0.294860 0.526638 0.054853
0.352784 0.533198 0.051046
0.430745 0.532836 0.035855
0.517435 0.544901 0.035177
0.616818 0.578585 0.032990
0.738064 0.598801 0.013767
0.804248 0.587229 0.021112
0.854029 0.579586 0.022919
0.894546 0.575529 0.023458
0.936473 0.572978 0.024047
0.984400 0.572738 0.024152
0.088490 0.596226 0.066678
0.131289 0.595155 0.066200
0.174033 0.594026 0.065737
0.216422 0.592316 0.065193
0.257917 0.589609 0.064196
0.300762 0.588142 0.065751
0.356263 0.596344 0.062840
0.420575 0.602928 0.057077
0.504813 0.602994 0.045620
0.599734 0.623646 0.049862
0.700065 0.653578 0.036272
0.802024 0.676282 -0.011903
0.860785 0.664455 0.018435
0.900331 0.657434 0.021010
0.942448 0.654311 0.021357
0.990518 0.653949 0.021380
0.100733 0.668091 0.081334
0.143575 0.666849 0.080743
0.186304 0.665337 0.080038
0.228779 0.663284 0.079006
0.270609 0.660135 0.077461
0.312012 0.656736 0.076502
0.357415 0.655310 0.077473
0.415528 0.664754 0.073481
0.493907 0.672540 0.062851
0.585538 0.675236 0.064499
0.676717 0.694721 0.058646
0.782873 0.726801 0.035684
0.863385 0.757448 -0.024217
0.907730 0.749775 -0.016501
0.949738 0.745877 -0.014289
0.997771 0.745053 -0.012896
0.111749 0.737773 0.096231
0.154769 0.737094 0.095786
0.197729 0.736291 0.095275
0.240570 0.735214 0.094572
0.282851 0.733203 0.093588
0.324062 0.730416 0.092347
0.371116 0.730196 0.092584
0.422543 0.733764 0.091863
0.487115 0.740002 0.084860
0.582457 0.746691 0.075270
0.665849 0.748600 0.083471
0.753525 0.763462 0.066796
0.841831 0.800152 0.042136
0.892524 0.812615 0.038264
0.935007 0.810841 0.035547
0.983466 0.810862 0.034971
0.110339 0.777785 0.094410
0.153714 0.777867 0.094464
0.197108 0.778008 0.094538
0.240539 0.778224 0.094661
0.284013 0.778498 0.094784
0.327048 0.778628 0.094781
0.371487 0.779310 0.096215
0.424683 0.786395 0.100067
0.485185 0.792577 0.093793
0.564185 0.799537 0.085958
0.660578 0.808177 0.089692
0.738125 0.812847 0.093074
0.822473 0.830885 0.073727
0.881817 0.850716 0.071492
0.922127 0.848934 0.070204
0.970164 0.849018 0.069472
0.110305 0.821040 0.094368
0.153638 0.821040 0.094368
0.196971 0.821040 0.094368
0.240305 0.821040 0.094368
0.283638 0.821040 0.094368
0.326743 0.820950 0.094249
0.369602 0.820375 0.094311
0.421320 0.826797 0.099234
0.480272 0.833466 0.094912
0.553112 0.840417 0.087327
0.649963 0.850966 0.087285
0.731692 0.854327 0.094598
0.812757 0.873075 0.079206
0.879855 0.887237 0.075864
0.921458 0.888484 0.076240
0.969481 0.888209 0.075663
0.117954 0.879285 0.101248
0.161037 0.879285 0.101277
0.203121 0.879285 0.101318
0.243462 0.879284 0.101353
0.282176 0.879281 0.101366
0.318366 0.879206 0.101290
0.347981 0.878836 0.101313
0.382034 0.884835 0.105839
0.434312 0.891829 0.101766
0.520025 0.898986 0.093880
0.633383 0.909827 0.092557
0.725735 0.914329 0.099556
0.811980 0.933222 0.085265
0.884047 0.948024 0.079791
0.927525 0.951486 0.079784
0.975510 0.951237 0.079133
-0.053612 -0.104084 -0.005622
-0.010984 -0.104082 -0.006499
0.053468 -0.104063 -0.007861
0.210464 -0.104064 -0.008825
0.292493 -0.104081 -0.008792
0.362139 -0.103971 -0.008780
0.444274 -0.103568 -0.007962
0.538056 -0.102156 -0.004744
0.620268 -0.100429 0.002351
0.680512 -0.101060 0.010532
0.723687 -0.104852 0.012896
0.761129 -0.110306 0.013474
0.799021 -0.117466 0.020031
0.838359 -0.123643 0.030542
0.879649 -0.126393 0.039361
0.926976 -0.126947 0.048005
-0.004251 0.033463 0.052065
0.024863 0.032880 0.050831
0.116993 0.033671 0.048764
0.204574 0.037251 0.039085
0.283876 0.036201 0.041049
0.351359 0.036834 0.037200
0.426900 0.060930 0.053946
0.516645 0.078448 0.063770
0.603149 0.094436 0.072021
0.666555 0.102451 0.076078
0.714846 0.104446 0.077048
0.757024 0.104016 0.076833
0.800357 0.104016 0.076833
0.843691 0.104016 0.076833
0.886482 0.104026 0.076833
0.933920 0.103960 0.076818
0.002692 0.111620 0.049832
0.029641 0.109787 0.048768
0.069238 0.105483 0.038990
0.191329 0.099003 0.038553
0.276901 0.083471 0.041724
0.347730 0.090324 0.037411
0.419788 0.104592 0.052168
0.505797 0.118548 0.061814
0.596979 0.135244 0.070898
0.662895 0.143142 0.075259
0.715015 0.146777 0.076980
0.756779 0.146520 0.076709
0.800224 0.146808 0.076751
0.843607 0.146973 0.076775
0.886397 0.147070 0.076789
0.933816 0.147040 0.076779
0.009348 0.172414 0.055831
0.044641 0.171424 0.055218
0.065221 0.170181 0.055557
0.173359 0.165450 0.033257
0.266100 0.159561 0.037789
0.342483 0.149411 0.037792
0.415769 0.156598 0.052036
0.499234 0.168431 0.060978
0.589947 0.183169 0.070113
0.660317 0.192852 0.075512
0.717902 0.196754 0.078198
0.757610 0.192152 0.077150
0.800525 0.191053 0.076958
0.843616 0.190196 0.076810
0.886217 0.189687 0.076728
0.933699 0.189660 0.076720
0.019886 0.227663 0.064967
0.062177 0.226974 0.064526
0.094285 0.226449 0.064085
0.147624 0.223687 0.059783
0.247591 0.223076 0.031451
0.334974 0.220995 0.036509
0.411851 0.219560 0.051627
0.494743 0.223275 0.060335
0.586228 0.238324 0.069967
0.659976 0.249261 0.076561
0.723764 0.255764 0.080584
0.763609 0.251555 0.079686
0.805904 0.249570 0.079350
0.848740 0.248223 0.079161
0.890984 0.247006 0.078969
0.938484 0.246846 0.078944
0.031564 0.285704 0.072077
0.074134 0.284723 0.071730
0.114638 0.283120 0.071383
0.158149 0.283871 0.070742
0.227676 0.280211 0.053073
0.316368 0.286276 0.031402
0.405550 0.291394 0.048966
0.491215 0.290655 0.058415
0.582663 0.297713 0.069256
0.660754 0.307420 0.076900
0.725203 0.312891 0.081304
0.769851 0.310346 0.081552
0.811532 0.307889 0.081209
0.854416 0.306649 0.081061
0.896834 0.305586 0.080955
0.944289 0.305423 0.080926
0.042379 0.343915 0.078824
0.084916 0.343074 0.078370
0.126808 0.341856 0.077873
0.169416 0.341245 0.077254
0.216550 0.341270 0.074708
0.303085 0.339059 0.028754
0.382093 0.352678 0.035743
0.483856 0.364555 0.055341
0.580388 0.367149 0.066119
0.662739 0.368203 0.075467
0.725599 0.371689 0.080476
0.777258 0.371354 0.082540
0.817890 0.367925 0.082151
0.860621 0.366469 0.082080
0.902786 0.365122 0.082037
0.950476 0.364916 0.082017
0.054500 0.402750 0.085436
0.097237 0.401729 0.084982
0.139760 0.400589 0.084507
0.180166 0.398295 0.083981
0.227847 0.399938 0.082756
0.282129 0.398976 0.076542
0.372601 0.401677 0.031491
0.452030 0.422854 0.057689
0.567898 0.441516 0.060700
0.666189 0.441414 0.071391
0.729194 0.436547 0.076545
0.785737 0.436074 0.081188
0.826427 0.432021 0.081526
0.868688 0.430148 0.081586
0.910652 0.428529 0.081691
0.958414 0.428301 0.081692
0.065451 0.465822 0.093262
0.108044 0.464614 0.092873
0.150711 0.463537 0.092505
0.192245 0.461224 0.091803
0.235944 0.460303 0.091075
0.287340 0.463441 0.087950
0.355546 0.463240 0.076138
0.442676 0.469734 0.061146
0.531125 0.497859 0.067695
0.654979 0.521235 0.061654
0.734170 0.511935 0.070483
0.796202 0.506495 0.073871
0.838481 0.500975 0.076706
0.879736 0.498380 0.077404
0.921459 0.496412 0.077936
0.969272 0.496065 0.078008
0.076950 0.530938 0.101870
0.119631 0.529781 0.101486
0.162453 0.528703 0.101130
0.204633 0.526725 0.100432
0.245464 0.523916 0.100041
0.294785 0.526323 0.098016
0.352556 0.532767 0.094244
0.430420 0.532301 0.079003
0.516811 0.544243 0.078270
0.616217 0.577982 0.076226
0.737624 0.598326 0.057302
0.803879 0.586772 0.064522
0.853914 0.579242 0.066289
0.894506 0.575194 0.066868
0.936352 0.572607 0.067415
0.984332 0.572432 0.067530
0.088322 0.595867 0.109858
0.130982 0.594538 0.109253
0.173779 0.593585 0.108931
0.216209 0.591899 0.108384
0.257710 0.589249 0.107399
0.300647 0.587818 0.108901
0.356173 0.596004 0.105889
0.420313 0.602466 0.100232
0.504563 0.602557 0.088708
0.599262 0.623177 0.092936
0.699362 0.653071 0.079546
0.801655 0.675641 0.031935
0.860718 0.663945 0.061856
0.900203 0.656862 0.064404
0.942348 0.653823 0.064728
0.990513 0.653556 0.064739
0.100583 0.667713 0.124496
0.143237 0.666047 0.123699
0.186078 0.664754 0.123048
0.228532 0.662689 0.122076
0.270355 0.659618 0.120568
0.311761 0.656211 0.119580
0.357202 0.654870 0.120590
0.415418 0.664377 0.116589
0.493432 0.672034 0.106004
0.584999 0.674824 0.107447
0.676328 0.694470 0.101732
0.782232 0.726238 0.079081
0.863480 0.757187 0.019056
0.907950 0.749355 0.026797
0.949684 0.745133 0.029728
0.997583 0.744358 0.031149
0.111664 0.737609 0.139441
0.154558 0.736602 0.138815
0.197580 0.735961 0.138400
0.240406 0.734877 0.137694
0.282639 0.732888 0.136808
0.323921 0.730098 0.135484
0.370995 0.729840 0.135743
0.422290 0.733342 0.135014
0.486921 0.739687 0.128024
0.581953 0.746240 0.118305
0.665326 0.748150 0.126554
0.753145 0.763034 0.109902
0.841645 0.799685 0.085170
0.892772 0.812601 0.080989
0.935323 0.810820 0.078291
0.983801 0.810938 0.077821
0.110361 0.777831 0.137768
0.153740 0.777923 0.137824
0.197135 0.778071 0.137908
0.240560 0.778274 0.138022
0.284040 0.778555 0.138150
0.327056 0.778644 0.138114
0.371511 0.779308 0.139544
0.424671 0.786349 0.143345
0.485021 0.792441 0.137129
0.563891 0.799405 0.129298
0.660225 0.808149 0.132942
0.737927 0.812756 0.136202
0.822372 0.830796 0.116861
0.881868 0.850938 0.114545
0.922271 0.849106 0.113202
0.970206 0.849256 0.112453
0.110305 0.821040 0.137701
0.153638 0.821040 0.137701
0.196971 0.821040 0.137701
0.240305 0.821040 0.137701
0.283628 0.821041 0.137693
0.326734 0.820948 0.137582
0.369682 0.820440 0.137689
0.421294 0.826762 0.142550
0.480134 0.833487 0.138281
0.552818 0.840333 0.130734
0.649412 0.850906 0.130552
0.731423 0.854282 0.137924
0.812316 0.872828 0.122779
0.879614 0.886861 0.119241
0.921472 0.888505 0.119611
0.969501 0.888168 0.119039
0.117948 0.879283 0.143210
0.161112 0.879282 0.143364
0.203559 0.879281 0.143691
0.244202 0.879281 0.144145
0.282703 0.879281 0.144471
0.318732 0.879204 0.144487
0.348962 0.878895 0.144523
0.383427 0.884804 0.148969
0.434847 0.891776 0.144966
0.519486 0.898944 0.137145
0.632754 0.909769 0.135697
0.725271 0.914251 0.142829
0.811540 0.933072 0.128760
0.883861 0.947674 0.123056
0.927543 0.951538 0.123091
0.975505 0.951235 0.122453
-0.053530 -0.104061 0.122018
-0.010122 -0.104042 0.118492
0.044606 -0.103999 0.103416
0.191785 -0.103966 0.048776
0.290918 -0.104103 0.036638
0.361315 -0.104014 0.037098
0.442344 -0.103662 0.039194
0.534552 -0.102492 0.043596
0.619550 -0.100449 0.052188
0.680758 -0.100830 0.061103
0.724080 -0.104647 0.061526
0.761327 -0.110134 0.060171
0.799239 -0.117293 0.067033
0.838541 -0.123509 0.082405
0.879700 -0.126324 0.094197
0.927019 -0.126912 0.095513
-0.002172 0.034068 0.129247
0.028581 0.032823 0.128471
0.108970 0.034341 0.124926
0.195553 0.038039 0.112790
0.285363 0.035111 0.095284
0.350607 0.035753 0.099343
0.425474 0.059820 0.105759
0.514321 0.077334 0.112402
0.602535 0.094165 0.119009
0.666805 0.102822 0.121998
0.715048 0.104675 0.121647
0.757106 0.104069 0.120499
0.800403 0.104034 0.120229
0.843643 0.103994 0.119939
0.886448 0.104005 0.120012
0.933889 0.103951 0.120017
-0.002478 0.113687 0.111427
0.031468 0.111645 0.110244
0.064440 0.108187 0.112841
0.187165 0.096874 0.099685
0.279744 0.077903 0.093943
0.347388 0.095343 0.097431
0.418293 0.106147 0.103408
0.501580 0.118600 0.109771
0.593579 0.134448 0.116917
0.660975 0.142065 0.119897
0.715304 0.146733 0.121713
0.756797 0.146341 0.120919
0.800261 0.146669 0.120895
0.843602 0.146861 0.120782
0.886421 0.146950 0.120644
0.933854 0.146923 0.120627
0.010044 0.173684 0.108620
0.049437 0.172476 0.107443
0.067685 0.172045 0.108067
0.168305 0.166898 0.090623
0.267079 0.158641 0.079175
0.341729 0.151092 0.090772
0.414948 0.156994 0.098655
0.497460 0.168797 0.105674
0.587940 0.183427 0.114403
0.659529 0.193915 0.119601
0.718913 0.198923 0.122293
0.758242 0.194171 0.120689
0.800957 0.192457 0.120409
0.843941 0.191430 0.120241
0.886481 0.190753 0.120140
0.933951 0.190717 0.120138
0.019195 0.228037 0.111461
0.061597 0.227211 0.110204
0.095982 0.226610 0.109722
0.121405 0.224260 0.106671
0.246220 0.223018 0.073881
0.333939 0.220836 0.079580
0.410407 0.219942 0.095695
0.493003 0.223424 0.103811
0.584477 0.238247 0.112946
0.659259 0.249641 0.119699
0.723409 0.256456 0.123838
0.764106 0.252727 0.123172
0.806401 0.250797 0.122856
0.849140 0.249524 0.122673
0.891499 0.248423 0.122516
0.939025 0.248301 0.122496
0.031128 0.285049 0.114831
0.073662 0.284249 0.114739
0.113874 0.282642 0.115390
0.157744 0.283315 0.114383
0.227633 0.279699 0.096477
0.315544 0.285418 0.074814
0.404205 0.290736 0.091578
0.489641 0.290505 0.101307
0.581014 0.297597 0.112166
0.660076 0.307621 0.120104
0.724544 0.313157 0.124500
0.770248 0.311083 0.124960
0.811758 0.308608 0.124601
0.854711 0.307427 0.124469
0.897069 0.306386 0.124368
0.944647 0.306268 0.124340
0.041971 0.343467 0.121887
0.084587 0.342712 0.121470
0.126194 0.341019 0.120762
0.169790 0.340800 0.120122
0.217081 0.340653 0.117528
0.303362 0.338563 0.072050
0.381305 0.351714 0.078949
0.482485 0.363941 0.098478
0.578610 0.366743 0.109166
0.662369 0.368486 0.118608
0.725045 0.371743 0.123654
0.777619 0.371905 0.125894
0.818116 0.368492 0.125495
0.860739 0.367070 0.125425
0.903045 0.365740 0.125388
0.950734 0.365641 0.125367
0.054231 0.402276 0.128563
0.097000 0.401362 0.128146
0.139066 0.399656 0.127480
0.180183 0.397861 0.127028
0.227885 0.399394 0.125748
0.282762 0.398317 0.119311
0.372636 0.401104 0.074720
0.451185 0.421919 0.100774
0.566464 0.440805 0.103875
0.665460 0.441330 0.114710
0.728595 0.436739 0.119666
0.785695 0.436301 0.124489
0.826571 0.432365 0.124845
0.868947 0.430646 0.124885
0.910866 0.428964 0.124992
0.958654 0.428817 0.124986
0.065149 0.465349 0.136440
0.107820 0.464238 0.136080
0.150049 0.462455 0.135463
0.191672 0.460370 0.134845
0.236265 0.459925 0.133948
0.287412 0.462866 0.130947
0.355898 0.462540 0.118747
0.442364 0.468954 0.104332
0.530064 0.496886 0.110772
0.653755 0.520564 0.104795
0.733558 0.511856 0.113845
0.795923 0.506598 0.117166
0.838739 0.501308 0.119943
0.879839 0.498675 0.120701
0.921691 0.496762 0.121218
0.969480 0.496545 0.121276
0.076715 0.530524 0.145091
0.119445 0.529395 0.144681
0.161882 0.527624 0.144090
0.204144 0.525814 0.143465
0.245295 0.523311 0.143127
0.295292 0.526094 0.140881
0.352783 0.532149 0.137238
0.430700 0.531639 0.121790
0.516529 0.543491 0.121295
0.615226 0.577083 0.119452
0.737118 0.597854 0.100935
0.803220 0.586623 0.107900
0.853950 0.579298 0.109627
0.894543 0.575366 0.110177
0.936445 0.572929 0.110678
0.984453 0.572785 0.110720
0.088087 0.595409 0.152990
0.130824 0.594249 0.152473
0.173236 0.592510 0.151945
0.215763 0.591032 0.151413
0.257279 0.588489 0.150533
0.300901 0.587601 0.151891
0.356767 0.595960 0.148818
0.420616 0.601863 0.143140
0.504804 0.602100 0.131818
0.598997 0.622663 0.135831
0.698414 0.652363 0.122850
0.801156 0.675020 0.075972
0.860781 0.663689 0.105247
0.900187 0.656714 0.107774
0.942338 0.653859 0.108073
0.990534 0.653735 0.108081
0.100373 0.667211 0.167577
0.143082 0.665617 0.166838
0.185539 0.663527 0.165780
0.228049 0.661615 0.164875
0.269845 0.658637 0.163430
0.311618 0.655502 0.162678
0.357226 0.654438 0.163646
0.416104 0.664367 0.159471
0.493676 0.671392 0.148848
0.584874 0.674473 0.150543
0.675988 0.694087 0.144628
0.781520 0.725522 0.122532
0.863408 0.756710 0.062394
0.907960 0.749097 0.070172
0.949653 0.744781 0.073561
0.997551 0.744134 0.074862
0.111538 0.737289 0.182578
0.154451 0.736410 0.182027
0.197271 0.735304 0.181328
0.240102 0.734237 0.180682
0.282288 0.732303 0.179911
0.323871 0.729570 0.178590
0.371114 0.729519 0.178853
0.422332 0.732911 0.177965
0.487479 0.739420 0.170967
0.582151 0.745719 0.161267
0.665199 0.747697 0.169551
0.752996 0.762635 0.152836
0.841355 0.799134 0.128177
0.893056 0.812607 0.123761
0.935405 0.810888 0.121291
0.983839 0.810922 0.120925
0.110382 0.777874 0.181137
0.153766 0.777992 0.181194
0.197172 0.778163 0.181294
0.240608 0.778371 0.181399
0.284081 0.778645 0.181522
0.327018 0.778632 0.181438
0.371888 0.779580 0.183127
0.425045 0.786459 0.186547
0.485406 0.792500 0.180311
0.564372 0.799406 0.172518
0.660173 0.808025 0.176226
0.737913 0.812758 0.179271
0.822137 0.830648 0.159970
0.882070 0.850886 0.157389
0.922355 0.849303 0.156158
0.970380 0.849322 0.155458
0.110305 0.821040 0.181034
0.153638 0.821040 0.181034
0.196971 0.821040 0.181034
0.240305 0.821040 0.181034
0.283628 0.821043 0.181023
0.326666 0.820907 0.180884
0.370041 0.820714 0.181302
0.421739 0.827025 0.185855
0.480606 0.833590 0.181483
0.553118 0.840414 0.174043
0.649570 0.851000 0.173954
0.731321 0.854164 0.181242
0.812025 0.872818 0.166354
0.879373 0.886447 0.162640
0.921491 0.888538 0.162994
0.969460 0.888148 0.162418
0.117910 0.879274 0.183602
0.161105 0.879273 0.183801
0.203918 0.879268 0.184303
0.245834 0.879258 0.185154
0.285605 0.879254 0.186287
0.321647 0.879172 0.187052
0.352503 0.879132 0.187618
0.387607 0.885063 0.191782
0.438148 0.891887 0.187493
0.520828 0.898964 0.179705
0.633254 0.909883 0.178440
0.725246 0.914271 0.185542
0.811253 0.932990 0.171585
0.883493 0.947361 0.165759
0.927511 0.951559 0.165823
0.975435 0.951222 0.165186
-0.052898 -0.103912 0.205576
-0.008727 -0.103883 0.205021
0.044687 -0.103803 0.198617
0.165772 -0.103661 0.191492
0.255292 -0.103128 0.165798
0.351161 -0.104125 0.093529
0.434081 -0.104185 0.093731
0.528861 -0.102684 0.111420
0.615642 -0.100406 0.154749
0.679690 -0.100240 0.163191
0.724112 -0.104113 0.161781
0.761665 -0.109651 0.158400
0.799764 -0.116813 0.160549
0.839074 -0.123043 0.162409
0.880342 -0.125917 0.162238
0.927653 -0.126552 0.162403
0.009405 0.042006 0.203377
0.036284 0.036048 0.202899
0.115189 0.039250 0.199985
0.181520 0.051775 0.194199
0.255305 0.059367 0.177679
0.343555 0.032852 0.158841
0.419353 0.054595 0.159945
0.509962 0.077050 0.167360
0.598690 0.094021 0.173286
0.666032 0.103846 0.176176
0.715521 0.105690 0.175647
0.757644 0.105026 0.173432
0.800992 0.104969 0.172740
0.844354 0.104915 0.171941
0.887174 0.104862 0.171279
0.934641 0.104786 0.171280
0.009050 0.115399 0.186371
0.034747 0.113067 0.185997
0.098871 0.111488 0.187824
0.172422 0.106282 0.186633
0.257254 0.103438 0.171663
0.346916 0.077456 0.155987
0.417435 0.104910 0.158317
0.498935 0.117368 0.162948
0.589182 0.132543 0.170013
0.660064 0.142383 0.172770
0.715806 0.147260 0.174030
0.757136 0.146648 0.172042
0.800526 0.146937 0.171412
0.843945 0.147101 0.170824
0.886733 0.147207 0.170254
0.934202 0.147185 0.170281
0.010003 0.178809 0.168281
0.049590 0.177433 0.167338
0.078032 0.177098 0.167658
0.109555 0.175707 0.172217
0.246316 0.164842 0.162388
0.342371 0.153119 0.149691
0.416465 0.160991 0.156935
0.495756 0.171711 0.163163
0.582870 0.185041 0.170390
0.658090 0.196803 0.174290
0.719873 0.202514 0.176287
0.759616 0.198139 0.173554
0.802369 0.196378 0.172386
0.845298 0.195036 0.171558
0.887798 0.193902 0.170846
0.935293 0.193868 0.170894
0.019769 0.229725 0.169292
0.062184 0.229009 0.168326
0.102528 0.228190 0.167196
0.116299 0.230557 0.170622
0.237745 0.227460 0.143566
0.334569 0.222319 0.144607
0.410402 0.222868 0.154414
0.492212 0.226595 0.160227
0.580312 0.239480 0.167599
0.657668 0.251028 0.172716
0.722874 0.257935 0.174777
0.764775 0.254745 0.172558
0.806923 0.252718 0.171240
0.849904 0.251664 0.170591
0.892321 0.250613 0.169855
0.939802 0.250515 0.169888
0.029051 0.286791 0.170858
0.071971 0.285831 0.170024
0.113602 0.283746 0.168860
0.155470 0.285967 0.170871
0.195790 0.283385 0.167186
0.316319 0.288081 0.116854
0.403941 0.291868 0.148317
0.487216 0.291452 0.154786
0.576449 0.297433 0.162630
0.658686 0.308102 0.168887
0.723533 0.313832 0.171668
0.770885 0.312423 0.170467
0.812253 0.309816 0.168657
0.855103 0.308711 0.167549
0.897570 0.307621 0.167113
0.945101 0.307537 0.167148
0.038202 0.344980 0.173121
0.081017 0.344103 0.172267
0.122771 0.342416 0.171680
0.166026 0.343073 0.173504
0.207763 0.342100 0.170084
0.298815 0.339113 0.137037
0.380918 0.352096 0.136606
0.480901 0.363646 0.146158
0.575974 0.366405 0.154580
0.661771 0.369193 0.162459
0.724261 0.372205 0.165867
0.777916 0.372772 0.168758
0.818439 0.369411 0.168625
0.861130 0.368069 0.168709
0.903401 0.366801 0.168747
0.951055 0.366717 0.168742
0.052748 0.402301 0.173506
0.095587 0.401310 0.172893
0.137175 0.400032 0.173425
0.178553 0.399008 0.174738
