luts/Cinematic3.cube
LUT_3D_SIZE 6
-0.001736 -0.003097 0.000801
0.174242 -0.000740 0.001623
0.409677 0.003200 0.003658
0.669257 0.009431 0.007804
0.837714 0.011379 0.009367
0.987261 0.011564 0.009560
-0.000903 0.176137 0.004691
0.148591 0.159881 -0.000273
0.382380 0.167721 0.002626
0.653654 0.168179 0.007204
0.836518 0.168631 0.009198
0.987181 0.167191 0.009523
0.003227 0.386613 0.012685
0.155557 0.382025 0.001875
0.360205 0.371469 0.002220
0.614592 0.385680 0.005205
0.838005 0.383675 0.008815
0.986233 0.381565 0.009032
0.006384 0.614909 0.031329
0.148995 0.613673 0.024416
0.323763 0.607061 0.002673
0.585353 0.594232 0.004717
0.842093 0.600642 0.008836
0.985069 0.596580 0.008580
0.009635 0.824589 0.050555
0.153216 0.824869 0.047435
0.292341 0.823716 0.039602
0.544506 0.825083 0.014034
0.818559 0.812847 0.009459
0.987120 0.809707 0.012212
0.011317 0.994146 0.059347
0.122653 0.994735 0.057127
0.212798 0.995204 0.054940
0.315714 0.998626 0.030421
0.783076 0.997242 0.008080
0.972103 0.995433 0.015810
-0.030390 -0.139287 0.184586
0.181472 -0.139635 0.174618
0.425115 -0.139943 0.191267
0.686613 -0.141730 0.196935
0.844361 -0.141001 0.192847
0.989431 -0.138828 0.188936
0.001024 0.167865 0.168887
0.124461 0.167916 0.172576
0.395526 0.123107 0.162115
0.657988 0.131342 0.149160
0.839602 0.149974 0.151187
0.988890 0.150424 0.151498
0.003058 0.383048 0.167788
0.136180 0.380932 0.159735
0.360869 0.371631 0.144817
0.619123 0.385269 0.147928
0.840452 0.380646 0.151951
0.987488 0.379130 0.152104
0.006338 0.613829 0.185780
0.149586 0.611465 0.182081
0.312681 0.611989 0.143815
0.589153 0.595895 0.146278
0.842021 0.598814 0.150249
0.986828 0.595138 0.152924
0.009649 0.824632 0.204353
0.152350 0.824738 0.202589
0.297636 0.823480 0.197944
0.538779 0.827188 0.165026
0.821449 0.815433 0.161782
0.985437 0.807641 0.165177
0.011595 0.994201 0.202896
0.120087 0.994569 0.204512
0.214514 0.995047 0.203570
0.306315 0.999775 0.169284
0.784290 0.999189 0.122401
0.969439 0.994475 0.161404
0.057541 -0.138971 0.462766
0.222577 -0.139350 0.447961
0.423605 -0.139798 0.428945
0.684591 -0.142037 0.445440
0.845374 -0.142136 0.441175
0.988137 -0.140952 0.439011
-0.005075 0.190757 0.414030
0.187069 0.122999 0.430829
0.394453 0.137159 0.411265
0.650252 0.153719 0.411204
0.837668 0.154103 0.406348
0.988173 0.154768 0.406521
0.003789 0.388338 0.392232
0.144556 0.383732 0.385904
0.350436 0.388307 0.399901
0.644193 0.380075 0.397887
0.854937 0.368919 0.390804
1.000224 0.364996 0.388379
0.006339 0.613210 0.390790
0.148425 0.611175 0.386426
0.296778 0.609735 0.377183
0.602639 0.612936 0.335193
0.854356 0.599100 0.346443
0.997843 0.594922 0.344290
0.009663 0.824552 0.379317
0.152242 0.825080 0.376247
0.296883 0.823653 0.368123
0.509936 0.827974 0.321318
0.820918 0.815249 0.314912
0.985536 0.806357 0.321613
-0.025029 0.994048 0.228721
0.100363 0.994358 0.235032
0.206903 0.995130 0.242399
0.295815 0.999028 0.210094
0.782102 1.000860 0.201271
0.977666 0.999929 0.205919
0.076907 -0.138381 0.717751
0.251837 -0.138784 0.712394
0.467567 -0.139453 0.705031
0.698821 -0.142574 0.693959
0.848647 -0.145964 0.688748
0.985570 -0.145268 0.687129
0.040281 0.124634 0.695490
0.216531 0.147785 0.691594
0.431873 0.160444 0.680135
0.662194 0.153319 0.663334
0.841582 0.154406 0.656434
0.987642 0.154169 0.653558
0.008213 0.414115 0.656086
0.127385 0.410807 0.651634
0.391150 0.393694 0.678177
0.649237 0.371138 0.661149
0.854033 0.349344 0.646105
0.999010 0.336039 0.640870
0.007100 0.617889 0.632091
0.149570 0.614153 0.627458
0.262097 0.612665 0.624853
0.610767 0.624312 0.650450
0.863415 0.616699 0.642540
1.003319 0.612817 0.638965
0.009807 0.826181 0.616294
0.152056 0.825778 0.613622
0.296196 0.823260 0.607700
0.482407 0.830760 0.601112
0.836439 0.830603 0.597652
0.998460 0.818241 0.599417
-0.031594 0.994069 0.566954
0.088839 0.994565 0.562218
0.192508 0.995304 0.554932
0.294110 0.998795 0.548018
0.791009 1.007976 0.515742
0.986201 1.004951 0.506606
0.078041 -0.138382 0.861346
0.256324 -0.138735 0.860342
0.469948 -0.139246 0.858834
0.700131 -0.142841 0.854078
0.843328 -0.150614 0.852427
0.978490 -0.150426 0.852874
0.053014 0.128153 0.860088
0.223521 0.157098 0.857648
0.438712 0.161141 0.854627
0.665308 0.154732 0.848613
0.839208 0.153364 0.847964
0.986153 0.154171 0.847741
0.005550 0.418430 0.845448
0.121283 0.416175 0.850352
0.410797 0.396681 0.867600
0.650645 0.352638 0.863540
0.850012 0.326798 0.860241
0.996896 0.326171 0.860506
0.009912 0.624252 0.846383
0.154313 0.622034 0.847279
0.255017 0.619887 0.854097
0.626942 0.629918 0.871281
0.860617 0.613993 0.867898
1.002866 0.610088 0.865864
0.009899 0.828363 0.843896
0.154804 0.828268 0.844247
0.296004 0.826003 0.843568
0.514535 0.833424 0.854789
0.846926 0.837434 0.863319
1.003530 0.831249 0.855641
-0.032517 0.994201 0.826647
0.087902 0.994769 0.825351
0.192803 0.995019 0.822773
0.307160 1.001939 0.824716
0.822926 1.016493 0.847713
1.001901 1.010019 0.840672
0.078009 -0.138305 1.002605
0.257285 -0.138603 1.001410
0.469217 -0.139174 0.998886
0.698817 -0.143962 0.994215
0.842828 -0.150964 0.988748
0.977797 -0.153546 0.987742
0.054458 0.148982 1.005670
0.223838 0.155461 1.004214
0.438766 0.161061 1.000897
0.664594 0.154996 0.997070
0.837881 0.153340 0.995779
0.984640 0.154294 0.995345
0.003168 0.418887 0.994536
0.123813 0.415179 1.000295
0.413223 0.397745 1.011278
0.647876 0.352798 1.008358
0.848068 0.322317 1.005803
0.995153 0.330504 1.006749
0.010163 0.623678 0.993535
0.153226 0.621457 0.994882
0.253309 0.619004 1.000918
0.629997 0.630623 1.014843
0.857641 0.614498 1.013426
1.001139 0.610154 1.012555
0.010121 0.827196 0.992620
0.152928 0.827354 0.993488
0.296169 0.824516 0.994036
0.528716 0.829195 1.008006
0.846647 0.837115 1.016743
1.006850 0.833153 1.016415
0.009139 0.973287 0.991742
0.152330 0.973639 0.992217
0.292350 0.974153 0.992780
0.492172 0.983365 1.003907
0.821824 0.991928 1.014795
1.008203 0.994116 1.016987
