luts/Cinematic2.cube
LUT_3D_SIZE 16
-0.000266 -0.001004 -0.000604
0.040641 0.003256 0.000850
0.119623 0.003388 -0.000329
0.204754 0.003709 -0.000024
0.297366 0.004568 0.000000
0.389200 0.004575 0.000000
0.476887 0.003653 0.000000
0.558753 0.003125 0.000000
0.639049 0.002585 0.000000
0.706139 0.001916 0.000000
0.755498 0.001443 0.000000
0.802038 0.001467 0.000000
0.848705 0.001467 0.000000
0.895371 0.001467 0.000000
0.941649 0.001467 0.000000
0.997890 0.001454 0.000000
-0.000169 0.048102 0.001497
0.041892 0.048985 0.000954
0.109399 0.051028 -0.001399
0.197434 0.045271 -0.000619
0.289874 0.049932 0.000000
0.382883 0.050317 0.000000
0.471767 0.049885 0.000000
0.554692 0.049567 0.000000
0.635235 0.049276 0.000000
0.705392 0.048610 0.000000
0.755544 0.048100 0.000000
0.802038 0.048133 0.000000
0.848705 0.048133 0.000000
0.895371 0.048133 0.000000
0.941649 0.048134 0.000000
0.997890 0.048121 0.000000
-0.000025 0.108140 0.009388
0.043896 0.107363 0.009118
0.082908 0.111349 0.003721
0.190000 0.107614 -0.001996
0.281425 0.107110 -0.000085
0.374987 0.104737 0.000000
0.464540 0.099930 0.000000
0.548207 0.088883 0.000000
0.629006 0.089124 0.000000
0.703220 0.089571 0.000000
0.755592 0.090377 0.000000
0.801996 0.091495 0.000000
0.848677 0.092514 0.000000
0.895354 0.094274 0.000000
0.941664 0.094512 0.000000
0.997877 0.094542 0.000000
0.000000 0.169765 0.018067
0.045736 0.168537 0.017652
0.084682 0.172264 0.015055
0.172477 0.173653 -0.003520
0.272339 0.172942 -0.000622
0.367541 0.171598 -0.000042
0.458742 0.168449 0.000000
0.544315 0.164399 0.000000
0.624804 0.159499 0.000000
0.700922 0.153980 0.000000
0.756423 0.148112 0.000000
0.802441 0.136383 0.000000
0.848963 0.134961 0.000000
0.895503 0.134180 0.000000
0.941729 0.134134 0.000000
0.997997 0.134220 0.000000
0.000000 0.235211 0.023093
0.046667 0.234158 0.022996
0.088319 0.233796 0.021527
0.126466 0.243147 -0.002357
0.260483 0.244353 -0.001560
0.358492 0.244289 -0.000410
0.452116 0.241199 0.000000
0.540445 0.236725 0.000000
0.621712 0.231972 0.000000
0.699634 0.226838 0.000000
0.758307 0.221714 0.000000
0.804306 0.216601 0.000000
0.850761 0.213931 0.000000
0.897230 0.211723 0.000000
0.943437 0.210586 0.000000
0.999680 0.210304 0.000000
0.000000 0.304549 0.023059
0.046667 0.303473 0.023156
0.091428 0.301309 0.023203
0.126934 0.308023 0.010083
0.236967 0.318788 0.001220
0.348629 0.321871 -0.001312
0.443076 0.319973 -0.000244
0.534362 0.315373 0.000000
0.618528 0.309416 0.000000
0.698072 0.302688 0.000000
0.758805 0.297162 0.000000
0.806870 0.291662 0.000000
0.853138 0.288512 0.000000
0.899666 0.286192 0.000000
0.945809 0.285055 0.000000
1.002328 0.284561 0.000000
-0.001645 0.377562 0.016820
0.045103 0.376436 0.017051
0.091750 0.374239 0.017903
0.129761 0.375311 0.014161
0.226111 0.384692 0.009503
0.333340 0.399965 -0.002156
0.433490 0.403684 -0.001112
0.525270 0.398666 -0.000088
0.612000 0.391792 0.000000
0.694787 0.384039 0.000000
0.758310 0.377830 0.000000
0.809954 0.371684 0.000000
0.856023 0.367655 0.000000
0.902477 0.365105 0.000000
0.948660 0.363784 0.000000
1.006163 0.363227 0.000000
0.007274 0.451943 0.016932
0.053486 0.450799 0.016768
0.099401 0.448947 0.016537
0.132746 0.446077 0.016280
0.220844 0.452947 0.014609
0.312720 0.465999 0.008213
0.418676 0.485497 -0.002305
0.514542 0.486148 -0.000770
0.603124 0.477913 -0.000029
0.687434 0.468502 -0.000038
0.756099 0.461426 -0.000058
0.811921 0.455244 -0.000070
0.858703 0.450598 -0.000072
0.905189 0.447952 -0.000072
0.951388 0.446638 -0.000071
1.009885 0.446103 -0.000071
0.012080 0.528600 0.020403
0.058572 0.527464 0.020245
0.104985 0.525738 0.020020
0.149123 0.522786 0.019628
0.211869 0.524682 0.018923
0.298337 0.533925 0.014386
0.397794 0.549955 0.005169
0.498615 0.569468 -0.001768
0.592797 0.566925 -0.000395
0.678460 0.555798 -0.000021
0.752502 0.546604 0.000302
0.811762 0.539864 0.000334
0.859731 0.534756 0.000332
0.906261 0.532072 0.000329
0.952491 0.530758 0.000328
1.011416 0.530271 0.000326
0.016116 0.605624 0.023126
0.062628 0.604512 0.023069
0.109091 0.602959 0.022979
0.154984 0.600416 0.022830
0.203680 0.598625 0.022272
0.287243 0.604758 0.019213
0.380176 0.615137 0.011584
0.478777 0.632778 -0.001475
0.575694 0.650340 -0.001268
0.668455 0.644426 0.000294
0.748362 0.632319 0.000596
0.810364 0.624529 0.000497
0.860231 0.618878 0.000454
0.906681 0.616135 0.000554
0.953131 0.614967 0.000581
1.012271 0.614538 0.000591
0.019751 0.681903 0.024889
0.066261 0.680796 0.024802
0.112727 0.679456 0.024686
0.159035 0.677251 0.024528
0.202076 0.674133 0.024133
0.276532 0.676681 0.022772
0.365202 0.683868 0.016684
0.460048 0.695446 0.008834
0.554628 0.713218 -0.002138
0.650531 0.726100 -0.001045
0.740772 0.717910 -0.000155
0.806333 0.707922 -0.000207
0.860378 0.701019 -0.000230
0.906670 0.698364 -0.000215
0.953124 0.697413 -0.000198
1.012324 0.696905 -0.000191
0.025167 0.754291 0.028679
0.071600 0.753468 0.028517
0.117983 0.752379 0.028311
0.164241 0.750799 0.027998
0.209445 0.748518 0.027485
0.264865 0.747748 0.026961
0.352905 0.752771 0.021840
0.443583 0.760517 0.014979
0.535326 0.772756 0.007449
0.628841 0.787772 -0.002352
0.726039 0.793710 -0.000953
0.801791 0.788711 0.001208
0.860007 0.781891 0.001191
0.906720 0.779238 0.001011
0.953125 0.778486 0.000950
1.012494 0.777922 0.000920
0.030109 0.820089 0.032624
0.076651 0.819592 0.032515
0.123159 0.818972 0.032388
0.169612 0.818120 0.032216
0.215752 0.816753 0.031906
0.259934 0.814989 0.031171
0.341869 0.817724 0.027834
0.429494 0.822798 0.021476
0.519630 0.831268 0.014359
0.610883 0.839961 0.007277
0.707917 0.847165 -0.001757
0.794973 0.850383 0.001502
0.857796 0.846203 0.001439
0.906821 0.843937 0.001322
0.953112 0.843638 0.001328
1.012505 0.843285 0.001353
0.030006 0.866290 0.032531
0.076676 0.866315 0.032533
0.123349 0.866314 0.032537
0.170026 0.866372 0.032545
0.216689 0.866416 0.032555
0.261596 0.866394 0.032280
0.328131 0.868726 0.030921
0.416374 0.874445 0.024973
0.505725 0.881938 0.018433
0.595167 0.887975 0.012723
0.690199 0.895637 0.006308
0.783471 0.902977 -0.000692
0.852906 0.905644 -0.000656
0.906974 0.904258 0.004221
0.953112 0.904138 0.003754
1.012504 0.903764 0.003599
0.030003 0.912934 0.032525
0.076670 0.912934 0.032525
0.123337 0.912934 0.032525
0.170003 0.912934 0.032525
0.216668 0.912934 0.032525
0.262290 0.912876 0.032371
0.319953 0.914328 0.031860
0.407932 0.919744 0.026318
0.496738 0.927514 0.019848
0.586346 0.933563 0.013906
0.679628 0.941013 0.008261
0.775351 0.948879 0.000731
0.848398 0.953532 -0.001314
0.907103 0.953440 0.007946
0.952826 0.953452 0.008258
1.012502 0.953457 0.008248
0.030491 0.962945 0.033037
0.077060 0.962945 0.033015
0.122831 0.962945 0.032829
0.165388 0.962945 0.032064
0.179092 0.962945 0.030206
0.204207 0.962876 0.030241
0.246066 0.964156 0.029056
0.388688 0.969521 0.027069
0.483398 0.977304 0.020520
0.576699 0.983491 0.014368
0.672722 0.990872 0.008740
0.771020 0.998845 0.001630
0.847346 1.004867 -0.001218
0.907503 1.004894 0.007719
0.953404 1.004890 0.008285
1.013073 1.004890 0.008271
-0.006750 -0.065138 0.039215
0.038710 -0.065117 0.039742
0.118783 -0.065118 0.039859
0.204614 -0.065115 0.039382
0.298343 -0.065100 0.039202
0.390980 -0.065209 0.039264
0.479179 -0.065871 0.039680
0.561298 -0.067460 0.040636
0.641387 -0.069633 0.041944
0.708467 -0.071870 0.043261
0.757341 -0.074234 0.044465
0.802916 -0.076535 0.045524
0.848761 -0.078008 0.045684
0.894983 -0.078443 0.045122
0.941180 -0.078457 0.044871
0.997407 -0.078457 0.044839
-0.000135 0.049517 0.049249
0.042100 0.049548 0.048936
0.108402 0.050730 0.045467
0.196679 0.045626 0.045868
0.289147 0.050037 0.046407
0.382331 0.050409 0.046942
0.471328 0.049948 0.046603
0.554316 0.049587 0.046639
0.634926 0.049288 0.046667
0.705354 0.048622 0.046667
0.755523 0.048101 0.046667
0.802038 0.048133 0.046667
0.848705 0.048133 0.046667
0.895371 0.048133 0.046667
0.941649 0.048134 0.046667
0.997890 0.048121 0.046667
-0.000024 0.107866 0.056032
0.044008 0.107033 0.055709
0.082937 0.111047 0.050705
0.189403 0.107273 0.044661
0.280690 0.106752 0.046551
0.374424 0.104361 0.046614
0.464060 0.099477 0.046638
0.547857 0.088946 0.046667
0.628695 0.089180 0.046667
0.703076 0.089625 0.046667
0.755573 0.090454 0.046667
0.801998 0.091584 0.046667
0.848679 0.092714 0.046667
0.895355 0.094360 0.046667
0.941663 0.094550 0.046667
0.997878 0.094568 0.046667
0.000000 0.169440 0.064605
0.045780 0.168255 0.064176
0.084801 0.171833 0.061728
0.171863 0.173278 0.043142
0.271790 0.172585 0.046032
0.367044 0.171270 0.046623
0.458288 0.168114 0.046667
0.543965 0.164079 0.046667
0.624462 0.159169 0.046667
0.700809 0.153663 0.046667
0.756422 0.147721 0.046667
0.802424 0.135922 0.046667
0.848956 0.134782 0.046667
0.895451 0.134098 0.046667
0.941780 0.134162 0.046667
0.997978 0.134246 0.046667
0.000000 0.234898 0.069713
0.046667 0.233864 0.069617
0.088413 0.233457 0.068238
0.126283 0.242786 0.044501
0.259896 0.243890 0.045091
0.357964 0.243898 0.046253
0.451652 0.240831 0.046667
0.540006 0.236325 0.046667
0.621352 0.231650 0.046667
0.699362 0.226515 0.046667
0.758152 0.221394 0.046667
0.804251 0.216252 0.046667
0.850701 0.213560 0.046667
0.897196 0.211359 0.046667
0.943384 0.210231 0.046667
0.999645 0.209948 0.046667
0.000000 0.304203 0.069770
0.046667 0.303153 0.069824
0.091508 0.301000 0.069922
0.127001 0.307636 0.056841
0.236318 0.318350 0.047944
0.348137 0.321415 0.045354
0.442621 0.319529 0.046421
0.533973 0.314974 0.046667
0.618163 0.309028 0.046667
0.697744 0.302312 0.046667
0.758693 0.296787 0.046667
0.806842 0.291300 0.046667
0.853180 0.288131 0.046667
0.899587 0.285827 0.046667
0.945748 0.284683 0.046667
1.002282 0.284190 0.046667
-0.001616 0.377233 0.063549
0.045132 0.376074 0.063825
0.091798 0.373924 0.064670
0.129856 0.374874 0.060893
0.225445 0.384262 0.056164
0.332811 0.399496 0.044518
0.433010 0.403118 0.045553
0.524850 0.398215 0.046577
0.611683 0.391383 0.046667
0.694516 0.383641 0.046667
0.758195 0.377418 0.046667
0.809895 0.371219 0.046667
0.856050 0.367225 0.046667
0.902480 0.364675 0.046667
0.948595 0.363375 0.046667
1.006112 0.362787 0.046667
0.007139 0.451595 0.063547
0.053343 0.450452 0.063381
0.099266 0.448604 0.063154
0.132811 0.445746 0.062927
0.220408 0.452517 0.061263
0.312226 0.465540 0.054897
0.418198 0.484951 0.044358
0.514144 0.485713 0.045891
0.602767 0.477500 0.046638
0.687165 0.468111 0.046629
0.755965 0.461021 0.046609
0.811857 0.454841 0.046597
0.858662 0.450168 0.046595
0.905162 0.447513 0.046595
0.951376 0.446196 0.046596
1.009860 0.445682 0.046596
0.012031 0.528252 0.067012
0.058522 0.527123 0.066861
0.104934 0.525444 0.066637
0.149135 0.522499 0.066252
0.211479 0.524253 0.065559
0.297872 0.533483 0.061071
0.397372 0.549499 0.051888
0.498233 0.569028 0.044891
0.592461 0.566503 0.046269
0.678108 0.555382 0.046643
0.752360 0.546198 0.046965
0.811768 0.539445 0.047000
0.859735 0.534311 0.046998
0.906255 0.531617 0.046995
0.952477 0.530320 0.046994
1.011405 0.529833 0.046992
0.016062 0.605296 0.069772
0.062583 0.604179 0.069714
0.109043 0.602616 0.069623
0.154954 0.600098 0.069478
0.203312 0.598243 0.068892
0.286864 0.604381 0.065905
0.379731 0.614736 0.058298
0.478354 0.632320 0.045217
0.575325 0.649945 0.045393
0.668159 0.644057 0.046956
0.748232 0.631935 0.047273
0.810224 0.624136 0.047173
0.860237 0.618502 0.047141
0.906674 0.615690 0.047232
0.953127 0.614542 0.047258
1.012260 0.614111 0.047259
0.019704 0.681546 0.071529
0.066211 0.680521 0.071439
0.112676 0.679124 0.071326
0.158994 0.676940 0.071166
0.202132 0.673816 0.070794
0.276084 0.676258 0.069461
0.364770 0.683452 0.063387
0.459639 0.695013 0.055529
0.554305 0.712804 0.044542
0.650199 0.725773 0.045621
0.740497 0.717573 0.046508
0.806180 0.707552 0.046463
0.860383 0.700648 0.046439
0.906671 0.697988 0.046457
0.953124 0.697011 0.046477
1.012323 0.696540 0.046485
0.025091 0.754016 0.075298
0.071538 0.753173 0.075132
0.117915 0.752099 0.074919
0.164179 0.750567 0.074620
0.209414 0.748283 0.074105
0.264402 0.747432 0.073615
0.352524 0.752460 0.068505
0.443196 0.760207 0.061656
0.535007 0.772389 0.054125
0.628503 0.787582 0.044322
0.725697 0.793576 0.045702
0.801646 0.788540 0.047860
0.859974 0.781604 0.047841
0.906723 0.778884 0.047659
0.953125 0.777985 0.047568
1.012494 0.777511 0.047544
0.030073 0.819965 0.079261
0.076596 0.819426 0.079150
0.123121 0.818833 0.079028
0.169574 0.818000 0.078849
0.215721 0.816587 0.078545
0.259912 0.814812 0.077810
0.341497 0.817548 0.074511
0.429177 0.822592 0.068156
0.519291 0.831077 0.061048
0.610538 0.839821 0.053942
0.707577 0.846991 0.044890
0.794809 0.850294 0.048175
0.857686 0.846079 0.048124
0.906825 0.843768 0.048015
0.953111 0.843501 0.048019
1.012505 0.843103 0.048052
0.030008 0.866297 0.079199
0.076678 0.866323 0.079201
0.123351 0.866322 0.079205
0.170028 0.866380 0.079213
0.216692 0.866426 0.079223
0.261617 0.866378 0.078952
0.327734 0.868626 0.077640
0.416028 0.874314 0.071692
0.505340 0.881879 0.065144
0.594817 0.887926 0.059421
0.689717 0.895528 0.053025
0.783227 0.902900 0.045970
0.852745 0.905618 0.046038
0.907010 0.904155 0.050799
0.953111 0.904029 0.050324
1.012504 0.903557 0.050163
0.030003 0.912934 0.079192
0.076670 0.912934 0.079192
0.123337 0.912934 0.079192
0.170003 0.912934 0.079192
0.216668 0.912934 0.079191
0.262319 0.912880 0.079040
0.319670 0.914290 0.078562
0.407528 0.919655 0.073052
0.496317 0.927493 0.066574
0.585942 0.933499 0.060611
0.679051 0.940880 0.054987
0.774893 0.948765 0.047567
0.848184 0.953588 0.045361
0.907100 0.953443 0.054582
0.952826 0.953457 0.054927
1.012502 0.953464 0.054916
0.030491 0.962945 0.079683
0.077103 0.962944 0.079637
0.123079 0.962944 0.079454
0.166298 0.962944 0.078788
0.195753 0.962944 0.076932
0.205537 0.962877 0.076820
0.246855 0.964139 0.075683
0.388614 0.969467 0.073731
0.482987 0.977246 0.067232
0.576305 0.983430 0.061060
0.672191 0.990808 0.055465
0.770655 0.998729 0.048349
0.847239 1.004855 0.045450
0.907464 1.004894 0.054349
0.953406 1.004890 0.054952
1.013074 1.004890 0.054938
-0.006750 -0.065100 0.088572
0.039216 -0.065055 0.104139
0.111724 -0.065066 0.112431
0.198861 -0.065085 0.110001
0.291947 -0.065062 0.109256
0.386644 -0.065173 0.108407
0.476340 -0.065841 0.106165
0.559346 -0.067437 0.102562
0.640025 -0.069609 0.098010
0.708266 -0.071852 0.090458
0.757255 -0.074212 0.091495
0.802861 -0.076512 0.092505
0.848719 -0.077998 0.092498
0.894951 -0.078442 0.091827
0.941128 -0.078457 0.091549
0.997383 -0.078457 0.091515
-0.000027 0.053040 0.101492
0.043141 0.052913 0.102034
0.100093 0.053151 0.110035
0.191737 0.050668 0.107981
0.284058 0.052020 0.106843
0.378885 0.052056 0.105579
0.469079 0.051154 0.103195
0.552887 0.050213 0.099860
0.634008 0.049567 0.095970
0.705061 0.048771 0.094914
0.755474 0.048176 0.094249
0.801982 0.048177 0.093910
0.848665 0.048148 0.093635
0.895375 0.048133 0.093212
0.941651 0.048134 0.093247
0.997892 0.048120 0.093260
0.000000 0.109685 0.107681
0.044550 0.108791 0.106793
0.083863 0.111407 0.107363
0.187177 0.107768 0.104657
0.278494 0.107363 0.102187
0.372703 0.104525 0.099376
0.462700 0.098939 0.096568
0.546941 0.089147 0.094002
0.627987 0.089315 0.093905
0.702780 0.089742 0.093693
0.755585 0.090604 0.093104
0.802004 0.091754 0.093180
0.848682 0.093817 0.093248
0.895357 0.094455 0.093295
0.941664 0.094587 0.093327
0.997880 0.094595 0.093333
0.000000 0.169085 0.114100
0.045760 0.168009 0.113303
0.085042 0.171164 0.112028
0.171718 0.172671 0.097472
0.270847 0.172157 0.095142
0.366019 0.170748 0.093856
0.457366 0.167563 0.093067
0.543185 0.163410 0.092862
0.623793 0.158512 0.093060
0.700477 0.153004 0.093147
0.756346 0.147005 0.093246
0.802407 0.135241 0.093306
0.848917 0.134460 0.093333
0.895427 0.134089 0.093333
0.941777 0.134230 0.093333
0.997957 0.134316 0.093333
0.000000 0.234181 0.117311
0.046667 0.233163 0.116926
0.088516 0.232691 0.115622
0.125846 0.242014 0.097335
0.258819 0.243055 0.091671
0.356990 0.243115 0.092763
0.450761 0.240076 0.093053
0.539258 0.235571 0.093178
0.620699 0.230958 0.093266
0.699048 0.225830 0.093305
0.758022 0.220770 0.093333
0.804205 0.215636 0.093333
0.850634 0.212993 0.093333
0.897189 0.210803 0.093333
0.943346 0.209691 0.093333
0.999583 0.209429 0.093333
0.000000 0.303563 0.116625
0.046667 0.302523 0.116615
0.091672 0.300308 0.116752
0.127137 0.306791 0.103683
0.235074 0.317472 0.094654
0.347168 0.320595 0.092015
0.441822 0.318764 0.093085
0.533358 0.314266 0.093333
0.617601 0.308377 0.093333
0.697412 0.301687 0.093333
0.758528 0.296215 0.093333
0.806834 0.290755 0.093333
0.853071 0.287557 0.093333
0.899599 0.285339 0.093333
0.945756 0.284200 0.093333
1.002224 0.283719 0.093333
-0.001568 0.376582 0.110331
0.045177 0.375464 0.110686
0.091871 0.373329 0.111519
0.130029 0.374150 0.107717
0.224377 0.383538 0.102818
0.331901 0.398708 0.091194
0.432294 0.402386 0.092215
0.524277 0.397545 0.093240
0.611143 0.390726 0.093333
0.694083 0.383047 0.093333
0.757992 0.376816 0.093333
0.809852 0.370697 0.093333
0.855955 0.366648 0.093333
0.902414 0.364122 0.093333
0.948579 0.362741 0.093333
1.006040 0.362189 0.093333
0.006906 0.451013 0.110134
0.053124 0.449905 0.109959
0.099053 0.448089 0.109745
0.132913 0.445205 0.109550
0.219740 0.451899 0.107904
0.311514 0.464873 0.101606
0.417623 0.484248 0.091021
0.513649 0.485069 0.092549
0.602330 0.476925 0.093305
0.686716 0.467617 0.093297
0.755731 0.460498 0.093277
0.811872 0.454284 0.093264
0.858613 0.449565 0.093261
0.905132 0.446953 0.093262
0.951381 0.445521 0.093262
1.009816 0.445025 0.093263
0.011954 0.527765 0.113617
0.058448 0.526579 0.113463
0.104859 0.524939 0.113242
0.149148 0.522017 0.112852
0.210952 0.523642 0.112186
0.297240 0.532853 0.107765
0.396715 0.548897 0.098641
0.497740 0.568460 0.091547
0.591940 0.565967 0.092932
0.677678 0.554876 0.093310
0.752211 0.545674 0.093627
0.811723 0.538886 0.093666
0.859692 0.533777 0.093664
0.906239 0.531060 0.093662
0.952540 0.529755 0.093660
1.011395 0.529285 0.093658
0.016010 0.604838 0.116417
0.062522 0.603666 0.116350
0.108977 0.602175 0.116268
0.154918 0.599658 0.116125
0.202801 0.597660 0.115493
0.286368 0.603829 0.112604
0.379174 0.614196 0.105016
0.477874 0.631742 0.091919
0.574823 0.649459 0.092054
0.667706 0.643590 0.093615
0.748136 0.631423 0.093949
0.810114 0.623671 0.093860
0.860243 0.617927 0.093828
0.906674 0.615190 0.093910
0.953126 0.613992 0.093936
1.012260 0.613547 0.093943
0.019637 0.681121 0.118159
0.066148 0.680097 0.118073
0.112612 0.678640 0.117962
0.158935 0.676511 0.117806
0.202192 0.673401 0.117439
0.275585 0.675781 0.116152
0.364250 0.682961 0.110101
0.459152 0.694521 0.102227
0.553917 0.712354 0.091211
0.649815 0.725392 0.092286
0.740213 0.717099 0.093162
0.806025 0.707119 0.093128
0.860388 0.700230 0.093110
0.906671 0.697443 0.093130
0.953124 0.696568 0.093151
1.012323 0.696013 0.093161
0.025005 0.753758 0.121904
0.071440 0.752831 0.121730
0.117822 0.751748 0.121522
0.164089 0.750185 0.121223
0.209351 0.747924 0.120701
0.263862 0.747059 0.120261
0.351981 0.752068 0.115194
0.442706 0.759779 0.108326
0.534565 0.772082 0.100809
0.628059 0.787211 0.090987
0.725276 0.793413 0.092432
0.801454 0.788371 0.094501
0.859951 0.781234 0.094475
0.906725 0.778448 0.094306
0.953125 0.777529 0.094185
1.012494 0.777062 0.094154
0.030026 0.819741 0.125887
0.076563 0.819211 0.125774
0.123073 0.818627 0.125656
0.169523 0.817796 0.125481
0.215672 0.816358 0.125165
0.259877 0.814626 0.124443
0.341032 0.817258 0.121195
0.428748 0.822301 0.114847
0.518851 0.830776 0.107737
0.610088 0.839641 0.100580
0.707123 0.846855 0.091535
0.794642 0.850161 0.094848
0.857573 0.845906 0.094810
0.906830 0.843513 0.094717
0.953111 0.843311 0.094731
1.012505 0.842912 0.094763
0.030009 0.866312 0.125866
0.076680 0.866325 0.125870
0.123355 0.866336 0.125874
0.170030 0.866393 0.125880
0.216693 0.866438 0.125890
0.261637 0.866386 0.125615
0.327225 0.868573 0.124359
0.415576 0.874228 0.118418
0.504848 0.881795 0.111884
0.594332 0.887858 0.106119
0.689180 0.895422 0.099739
0.782807 0.902818 0.092636
0.852612 0.905507 0.092750
0.907005 0.904017 0.097344
0.953112 0.903824 0.096835
1.012504 0.903462 0.096657
0.030003 0.912934 0.125858
0.076670 0.912934 0.125858
0.123337 0.912934 0.125858
0.170003 0.912934 0.125858
0.216669 0.912934 0.125858
0.262357 0.912884 0.125715
0.319293 0.914189 0.125277
0.407002 0.919589 0.119791
0.495724 0.927388 0.113339
0.585443 0.933454 0.107327
0.678491 0.940798 0.101730
0.774396 0.948694 0.094361
0.848053 0.953571 0.092039
0.907076 0.953448 0.101209
0.952828 0.953463 0.101597
1.012502 0.953469 0.101585
0.030491 0.962943 0.126173
0.077149 0.962943 0.126029
0.123326 0.962943 0.125749
0.167353 0.962944 0.125215
0.203461 0.962944 0.123717
0.208858 0.962880 0.122973
0.249511 0.964098 0.121739
0.389329 0.969397 0.119410
0.482930 0.977163 0.112451
0.576001 0.983352 0.105535
0.671695 0.990730 0.098013
0.770123 0.998702 0.087584
0.846990 1.004896 0.088136
0.907487 1.004894 0.099374
0.953441 1.004890 0.100491
1.013109 1.004890 0.100535
-0.006750 -0.064928 0.162336
0.039791 -0.064861 0.167017
0.085370 -0.064852 0.180303
0.192434 -0.065069 0.175435
0.281907 -0.064989 0.173296
0.375646 -0.065068 0.175408
0.468435 -0.065747 0.177616
0.553714 -0.067376 0.177404
0.635196 -0.069566 0.175147
0.706529 -0.071812 0.171482
0.756034 -0.074182 0.166945
0.801840 -0.076499 0.162651
0.847819 -0.077996 0.160392
0.894168 -0.078442 0.157938
0.940402 -0.078455 0.156715
0.996596 -0.078455 0.156484
0.000000 0.057602 0.162159
0.045073 0.056811 0.161860
0.083120 0.057922 0.175501
0.186302 0.051408 0.172281
0.274372 0.054112 0.170290
0.368786 0.054866 0.172012
0.461753 0.053905 0.173856
0.547745 0.052301 0.173472
0.629482 0.051039 0.171175
0.703642 0.049821 0.167534
0.754479 0.049062 0.162805
0.801216 0.048915 0.158061
0.848013 0.048837 0.155885
0.894738 0.048786 0.153923
0.941120 0.048749 0.152935
0.997312 0.048735 0.152740
0.000000 0.113457 0.166495
0.045791 0.112506 0.165280
0.083850 0.115461 0.173644
0.181726 0.109676 0.170827
0.271503 0.108793 0.168518
0.365555 0.106778 0.168678
0.456644 0.101122 0.168286
0.542693 0.092010 0.166835
0.624420 0.090140 0.163879
0.701576 0.090140 0.159709
0.754966 0.091001 0.155114
0.801534 0.092519 0.150884
0.848249 0.094860 0.149323
0.895006 0.095045 0.147940
0.941349 0.095082 0.147243
0.997587 0.095074 0.147141
0.000000 0.170759 0.169502
0.046242 0.169708 0.168333
0.085684 0.172123 0.170099
0.170561 0.172629 0.169160
0.269197 0.173530 0.167640
0.365111 0.173116 0.166165
0.456168 0.169965 0.163979
0.541580 0.165208 0.160820
0.621869 0.159587 0.156682
0.699682 0.153500 0.151988
0.756026 0.146869 0.147514
0.802092 0.134585 0.143325
0.848725 0.134132 0.142099
0.895309 0.134211 0.141169
0.941671 0.134375 0.140819
0.997854 0.134469 0.140989
0.000000 0.232448 0.173734
0.046655 0.231499 0.172957
0.088754 0.231146 0.171891
0.125357 0.240924 0.167437
0.258124 0.243611 0.162608
0.357769 0.244378 0.158617
0.450881 0.241079 0.154375
0.538624 0.236016 0.150776
0.619732 0.230843 0.147147
0.698469 0.225233 0.143710
0.757746 0.219936 0.139075
0.804124 0.214721 0.138800
0.850579 0.211979 0.139231
0.897080 0.209846 0.139400
0.943283 0.208721 0.139493
0.999510 0.208492 0.139516
0.000000 0.301477 0.173932
0.046667 0.300479 0.173260
0.091876 0.298390 0.172071
0.127290 0.305608 0.164163
0.233912 0.317038 0.155578
0.346424 0.320344 0.148950
0.441136 0.318285 0.144541
0.532529 0.313517 0.140669
0.616735 0.307432 0.138443
0.696776 0.300712 0.138828
0.758168 0.295227 0.139327
0.806704 0.289792 0.139694
0.853019 0.286584 0.139869
0.899471 0.284428 0.139917
0.945623 0.283317 0.139933
1.002119 0.282853 0.139935
-0.001496 0.374956 0.165239
0.045247 0.373879 0.164708
0.091964 0.371969 0.163779
0.130258 0.372855 0.158686
0.222767 0.382538 0.152584
0.330564 0.397445 0.139376
0.431136 0.401187 0.138228
0.523270 0.396426 0.139171
0.610332 0.389713 0.139565
0.693380 0.382066 0.139806
0.757692 0.375822 0.139936
0.809711 0.369757 0.140000
0.855930 0.365682 0.140000
0.902366 0.363178 0.140000
0.948519 0.361846 0.140000
1.005931 0.361291 0.140000
0.006548 0.450012 0.158035
0.052773 0.448922 0.157576
0.098747 0.447140 0.156824
0.133064 0.444287 0.156315
