luts/Cinematic3.cube
LUT_3D_SIZE 16
-0.001736 -0.003097 0.000801
0.040532 -0.001121 0.000582
0.088174 0.001411 -0.000668
0.174242 -0.000740 0.001623
0.250535 -0.001721 0.001918
0.326000 0.000936 0.002627
0.409677 0.003200 0.003658
0.497458 0.005384 0.004988
0.583132 0.007319 0.006320
0.669257 0.009431 0.007804
0.735271 0.010874 0.008905
0.785972 0.010273 0.008630
0.837714 0.011379 0.009367
0.887033 0.010305 0.008696
0.936930 0.011453 0.009462
0.987261 0.011564 0.009560
0.000358 0.040383 -0.001080
0.040576 0.037506 -0.000461
0.083157 0.040597 -0.004522
0.168418 0.043458 0.001387
0.245462 0.051405 0.001440
0.320793 0.053975 0.002180
0.404397 0.056505 0.003480
0.492287 0.059412 0.004803
0.579662 0.061918 0.006196
0.665911 0.064071 0.007675
0.734666 0.065360 0.009073
0.785015 0.065797 0.008788
0.837401 0.065331 0.008901
0.886664 0.066038 0.009403
0.936832 0.065874 0.009392
0.987240 0.066097 0.009552
0.001063 0.109719 0.002429
0.044215 0.105991 -0.001594
0.083227 0.082619 0.000862
0.160873 0.095314 0.000959
0.237272 0.100143 0.001183
0.314266 0.101249 0.001980
0.395793 0.104920 0.003182
0.484202 0.107385 0.004535
0.573783 0.110286 0.005977
0.660028 0.113032 0.007474
0.734518 0.114420 0.008306
0.785861 0.115826 0.009148
0.836933 0.116147 0.009221
0.887109 0.116613 0.009365
0.936749 0.116626 0.009365
0.987266 0.116874 0.009542
-0.000903 0.176137 0.004691
0.049710 0.173950 -0.001981
0.088949 0.163754 0.000974
0.148591 0.159881 -0.000273
0.227459 0.165896 0.000795
0.303493 0.168265 0.001749
0.382380 0.167721 0.002626
0.470290 0.163635 0.003981
0.563747 0.164208 0.005578
0.653654 0.168179 0.007204
0.734500 0.170601 0.008753
0.786195 0.169090 0.009012
0.836518 0.168631 0.009198
0.886570 0.167483 0.008969
0.936440 0.167066 0.009353
0.987181 0.167191 0.009523
0.001170 0.245831 0.007969
0.050738 0.244581 -0.002978
0.098776 0.241134 0.000953
0.149380 0.234662 0.000803
0.218318 0.228615 0.001006
0.295071 0.233507 0.000940
0.372515 0.238601 0.002176
0.453017 0.241515 0.003186
0.546561 0.241881 0.004744
0.639529 0.234330 0.006483
0.729770 0.226069 0.008336
0.787966 0.223297 0.009136
0.837393 0.222233 0.008841
0.887326 0.222336 0.009337
0.936910 0.222342 0.009345
0.987218 0.222892 0.009506
0.002296 0.314821 0.009785
0.044727 0.314167 0.002611
0.101440 0.312339 0.001500
0.155484 0.306327 0.001973
0.205971 0.304215 0.001798
0.289548 0.299584 0.002056
0.366440 0.302770 0.001898
0.446982 0.308417 0.002961
0.532500 0.313129 0.004130
0.625224 0.316359 0.005709
0.719845 0.313528 0.007539
0.788451 0.307315 0.008358
0.836610 0.300955 0.009142
0.888023 0.298279 0.009132
0.937431 0.294349 0.009255
0.986874 0.294071 0.009350
0.003227 0.386613 0.012685
0.049904 0.386874 0.009509
0.099444 0.386537 -0.003541
0.155557 0.382025 0.001875
0.210446 0.379299 0.002373
0.271736 0.376107 0.002293
0.360205 0.371469 0.002220
0.438801 0.373601 0.002624
0.525683 0.380461 0.003892
0.614592 0.385680 0.005205
0.709543 0.387379 0.006904
0.788275 0.386588 0.008751
0.838005 0.383675 0.008815
0.888224 0.382610 0.008745
0.937284 0.381214 0.008948
0.986233 0.381565 0.009032
0.004171 0.461320 0.014164
0.051563 0.460933 0.012337
0.096199 0.459353 0.008086
0.149833 0.457544 -0.003790
0.214677 0.455632 0.003024
0.262907 0.451767 0.002465
0.349208 0.449150 0.003299
0.432700 0.445753 0.002973
0.515130 0.446730 0.003469
0.606293 0.455264 0.004902
0.696453 0.458955 0.006697
0.784578 0.459846 0.007895
0.838164 0.457215 0.008601
0.887829 0.456751 0.009277
0.937227 0.455759 0.008762
0.985712 0.456293 0.008824
0.005281 0.539142 0.021780
0.052855 0.538843 0.018752
0.099675 0.538186 0.015517
0.133298 0.536763 0.011218
0.204431 0.535146 -0.004605
0.270748 0.531812 -0.003521
0.324483 0.524408 0.003999
0.429449 0.521584 0.003978
0.509685 0.518437 0.003739
0.596177 0.522170 0.004581
0.689065 0.529431 0.005469
0.780062 0.531382 0.008377
0.841195 0.527613 0.008854
0.887572 0.525983 0.007929
0.936821 0.525526 0.008622
0.985495 0.526251 0.008677
0.006384 0.614909 0.031329
0.053958 0.614591 0.029080
0.101106 0.614598 0.027109
0.148995 0.613673 0.024416
0.174710 0.611344 0.019339
0.269721 0.612598 -0.007336
0.323763 0.607061 0.002673
0.407236 0.599601 0.004466
0.505314 0.596236 0.004790
0.585353 0.594232 0.004717
0.676149 0.598606 0.004615
0.770865 0.602437 0.006419
0.842093 0.600642 0.008836
0.887780 0.598731 0.009042
0.936240 0.596654 0.008513
0.985069 0.596580 0.008580
0.007447 0.687625 0.037298
0.055048 0.686953 0.035697
0.102741 0.686136 0.034176
0.149672 0.684960 0.031678
0.194248 0.683873 0.030680
0.217285 0.684807 0.013176
0.324789 0.687026 0.005224
0.374667 0.680634 0.004431
0.488500 0.673094 0.004779
0.581429 0.669963 0.005625
0.664913 0.669289 0.005646
0.758749 0.673516 0.006385
0.839695 0.670350 0.008406
0.886196 0.668063 0.007339
0.935189 0.666459 0.008318
0.984010 0.666184 0.008299
0.008688 0.760287 0.043273
0.056325 0.759892 0.041968
0.102616 0.758935 0.040103
0.150949 0.758404 0.039068
0.198494 0.756386 0.037449
0.242692 0.753962 0.036544
0.268008 0.755931 -0.003160
0.376291 0.759224 0.010399
0.448986 0.753211 0.005684
0.572024 0.745254 0.002458
0.659652 0.742694 0.005506
0.742952 0.742354 0.007021
0.831843 0.740171 0.008024
0.885539 0.737309 0.008682
0.934039 0.736157 0.007984
0.984447 0.736189 0.008934
0.009635 0.824589 0.050555
0.057319 0.824706 0.049241
0.104945 0.824221 0.048111
0.153216 0.824869 0.047435
0.199185 0.824429 0.045463
0.245966 0.824279 0.045569
0.292341 0.823716 0.039602
0.353266 0.825866 0.016627
0.407667 0.828834 0.017990
0.544506 0.825083 0.014034
0.645856 0.819243 0.010094
0.730718 0.815778 0.008330
0.818559 0.812847 0.009459
0.887927 0.810997 0.011474
0.935983 0.809679 0.011501
0.987120 0.809707 0.012212
0.009776 0.873473 0.051600
0.057520 0.873797 0.050273
0.103618 0.874194 0.049226
0.152642 0.873942 0.047905
0.200779 0.874893 0.046829
0.247257 0.874426 0.046249
0.295184 0.875496 0.045487
0.342743 0.877288 0.028585
0.405306 0.879380 0.020810
0.507977 0.880963 0.020603
0.628810 0.879780 0.019103
0.716594 0.879253 0.015589
0.802579 0.878783 0.016815
0.882500 0.877910 0.014993
0.930046 0.877063 0.015558
0.981326 0.877199 0.015714
0.009890 0.922363 0.052984
0.057752 0.922540 0.051870
0.104607 0.922844 0.050524
0.154891 0.922987 0.049183
0.203597 0.923071 0.048530
0.252430 0.923496 0.047548
0.301582 0.923573 0.047486
0.353601 0.924772 0.035142
0.411673 0.926396 0.019265
0.489146 0.927582 0.020607
0.622244 0.926221 0.018755
0.710430 0.926073 0.016965
0.796857 0.924957 0.014375
0.878009 0.925366 0.015883
0.929785 0.924285 0.017773
0.980062 0.924132 0.017529
0.011317 0.994146 0.059347
0.058638 0.994372 0.058361
0.089656 0.994931 0.057364
0.122653 0.994735 0.057127
0.154025 0.994942 0.056324
0.184329 0.995127 0.055279
0.212798 0.995204 0.054940
0.242105 0.996281 0.046135
0.273324 0.997434 0.033867
0.315714 0.998626 0.030421
0.572993 0.997784 0.015563
0.682749 0.997696 0.014713
0.783076 0.997242 0.008080
0.868342 0.996790 0.011208
0.921805 0.995939 0.014227
0.972103 0.995433 0.015810
-0.007252 -0.139328 0.018102
0.038200 -0.139454 0.017562
0.104077 -0.139600 0.014930
0.180339 -0.139669 0.008661
0.258656 -0.139719 0.008699
0.336490 -0.139786 0.016636
0.424224 -0.139954 0.067024
0.515547 -0.140377 0.086832
0.603333 -0.140903 0.094321
0.687677 -0.141140 0.094901
0.750928 -0.141008 0.092509
0.797925 -0.140745 0.091986
0.845052 -0.140524 0.091269
0.890492 -0.140114 0.091138
0.938660 -0.139729 0.090135
0.989053 -0.139447 0.088816
-0.004236 0.081998 0.054882
0.039825 0.082003 0.055213
0.083391 0.082221 0.055611
0.168844 0.082424 0.058146
0.246852 0.082499 0.058294
0.322278 0.082526 0.054753
0.405103 0.082691 0.037582
0.492386 0.083048 0.032771
0.579672 0.083474 0.030870
0.665738 0.083903 0.031074
0.735262 0.084153 0.032192
0.786038 0.084184 0.032982
0.837411 0.084237 0.033620
0.887118 0.083905 0.033392
0.937538 0.083931 0.034093
0.987847 0.083897 0.034625
0.002118 0.107360 0.050966
0.041746 0.106686 0.044568
0.082903 0.083225 0.045105
0.161631 0.088473 0.048004
0.238563 0.097813 0.048827
0.315032 0.098873 0.049761
0.397221 0.102822 0.050792
0.485334 0.104242 0.052203
0.574559 0.106860 0.053686
0.660419 0.109361 0.055182
0.735228 0.111374 0.056480
0.785605 0.111991 0.056905
0.838006 0.112899 0.056578
0.887233 0.113150 0.057145
0.937396 0.113278 0.057148
0.987797 0.113564 0.057304
0.001268 0.174040 0.053863
0.045989 0.173513 0.052182
0.087476 0.163771 0.043991
0.148441 0.159311 0.047082
0.229781 0.165693 0.047976
0.305243 0.167923 0.048674
0.383914 0.165189 0.050174
0.472052 0.160410 0.051622
0.565431 0.162440 0.053282
0.654688 0.166410 0.054951
0.736002 0.167974 0.056227
0.787093 0.166295 0.056476
0.837116 0.165778 0.056994
0.887021 0.165220 0.056682
0.937023 0.164090 0.057078
0.987691 0.164298 0.057260
0.001643 0.244353 0.056204
0.048899 0.244234 0.055737
0.086532 0.241285 0.049312
0.147278 0.234780 0.047691
0.217949 0.229608 0.048147
0.295890 0.233704 0.048634
0.373606 0.238223 0.049559
0.454842 0.240974 0.050678
0.548256 0.240248 0.052357
0.641159 0.231585 0.054247
0.730553 0.224309 0.055699
0.788908 0.221176 0.056978
0.837858 0.219529 0.056156
0.888287 0.220994 0.057435
0.937472 0.220459 0.057048
0.987778 0.221061 0.057225
0.002312 0.313476 0.058234
0.049905 0.313255 0.056998
0.087769 0.312084 0.051250
0.154635 0.306994 0.044829
0.203713 0.304050 0.049107
0.289650 0.299902 0.047762
0.366695 0.302974 0.049122
0.448087 0.308516 0.050313
0.534091 0.313199 0.051597
0.626716 0.316072 0.053246
0.721137 0.312916 0.055332
0.789286 0.306376 0.056312
0.837929 0.300441 0.056823
0.888704 0.297089 0.056785
0.937974 0.293312 0.056923
0.987337 0.293076 0.057037
0.003154 0.385584 0.060870
0.050726 0.385865 0.059343
0.090486 0.386093 0.056393
0.150822 0.383333 0.042258
0.209612 0.380304 0.048281
0.270743 0.376655 0.049926
0.360543 0.371470 0.049363
0.439936 0.374040 0.049848
0.527615 0.380746 0.051289
0.616694 0.385833 0.052619
0.711772 0.387552 0.055258
0.789181 0.386211 0.056616
0.838402 0.383524 0.056076
0.888538 0.382462 0.056773
0.937765 0.380539 0.056561
0.986628 0.380996 0.056639
0.004140 0.460598 0.064985
0.051614 0.460249 0.063471
0.098636 0.459109 0.061974
0.131534 0.457678 0.057095
0.211732 0.457226 0.041986
0.262438 0.453925 0.049048
0.348142 0.449744 0.050358
0.433184 0.446227 0.050130
0.516667 0.447354 0.050742
0.608054 0.455824 0.052231
0.698357 0.459505 0.054152
0.784837 0.459469 0.055632
0.839071 0.456732 0.055404
0.888642 0.456839 0.056495
0.937504 0.455388 0.056298
0.986089 0.456036 0.056363
0.005261 0.538739 0.073861
0.052791 0.538438 0.071667
0.100854 0.537186 0.069325
0.144664 0.535629 0.066931
0.172635 0.534791 0.051409
0.269175 0.533588 0.044059
0.322041 0.525821 0.051388
0.428954 0.522514 0.051153
0.510641 0.519052 0.050894
0.597791 0.522938 0.051771
0.690078 0.530212 0.053137
0.780376 0.531144 0.056302
0.840706 0.527749 0.056356
0.888370 0.526820 0.055883
0.937041 0.525515 0.056129
0.985709 0.526105 0.056171
0.006367 0.614679 0.083067
0.053981 0.614291 0.081297
0.100256 0.614377 0.079263
0.149039 0.612893 0.077598
0.179249 0.610424 0.074779
0.261346 0.612385 0.036217
0.322065 0.608945 0.045198
0.405454 0.601111 0.052516
0.506951 0.596965 0.051852
0.586686 0.594958 0.051757
0.676570 0.599043 0.053509
0.771459 0.602892 0.054177
0.841803 0.600108 0.056248
0.887819 0.597633 0.055644
0.936534 0.595964 0.055861
0.985519 0.595953 0.055896
0.007446 0.687517 0.088799
0.055063 0.686752 0.087540
0.102809 0.686088 0.086039
0.149751 0.685463 0.084342
0.194818 0.683458 0.083179
0.221842 0.683641 0.073431
0.317601 0.687201 0.040919
0.371939 0.682157 0.050431
0.488157 0.674050 0.052035
0.582105 0.670470 0.052357
0.665110 0.670084 0.052669
0.757877 0.672814 0.053877
0.839925 0.669901 0.055248
0.887051 0.667947 0.056154
0.935573 0.666356 0.055848
0.984625 0.666094 0.056083
0.008683 0.760224 0.094824
0.056316 0.759658 0.093675
0.102628 0.758936 0.092036
0.150943 0.757766 0.090636
0.198515 0.756644 0.089582
0.239567 0.753924 0.088615
0.271378 0.755506 0.073430
0.367373 0.758845 0.058856
0.445226 0.754364 0.055709
0.572387 0.746380 0.051387
0.659396 0.742766 0.052408
0.743109 0.742495 0.052954
0.832887 0.741077 0.056130
0.886877 0.738024 0.057839
0.935299 0.736996 0.057613
0.985699 0.737054 0.058726
0.009641 0.824600 0.101866
0.057329 0.824649 0.100884
0.104985 0.824681 0.099763
0.152756 0.824542 0.099085
0.200462 0.824386 0.097301
0.246367 0.823887 0.097162
0.295832 0.823659 0.093179
0.320011 0.825981 0.069811
0.368476 0.828433 0.067112
0.543581 0.825851 0.063963
0.646338 0.820317 0.059049
0.731253 0.816948 0.058889
0.818763 0.813845 0.059768
0.888677 0.811173 0.061993
0.936176 0.809417 0.061830
0.987117 0.809115 0.062556
0.009775 0.873623 0.102909
0.057532 0.873921 0.102029
0.103690 0.874574 0.100779
0.152918 0.874503 0.100026
0.199899 0.874635 0.098935
0.249143 0.875134 0.098966
0.295769 0.875342 0.097882
0.348151 0.877133 0.086413
0.382407 0.879494 0.069012
0.504514 0.881617 0.070691
0.628064 0.880270 0.068195
0.715788 0.879765 0.066870
0.803863 0.879494 0.065522
0.880256 0.876623 0.065666
0.928744 0.876110 0.066129
0.980048 0.876364 0.066287
0.009893 0.922386 0.104385
0.057773 0.922634 0.103519
0.104728 0.922460 0.102711
0.153911 0.923109 0.101436
0.201960 0.923309 0.099797
0.250858 0.923451 0.099029
0.301598 0.923474 0.099472
0.355790 0.924808 0.090929
0.398700 0.926598 0.067190
0.483215 0.928143 0.070753
0.621882 0.927178 0.068627
0.710699 0.926513 0.067884
0.797814 0.926250 0.065577
0.877470 0.924706 0.067398
0.928496 0.923615 0.068760
0.978916 0.923450 0.068484
0.012222 0.994162 0.110417
0.059098 0.994368 0.109717
0.088741 0.994659 0.108782
0.122378 0.994863 0.108769
0.154073 0.994866 0.107857
0.183857 0.995033 0.107095
0.212273 0.995214 0.106738
0.242068 0.996271 0.100331
0.270222 0.997606 0.083545
0.313455 0.999164 0.081529
0.572699 0.998689 0.068118
0.683405 0.998135 0.065796
0.783526 0.998031 0.061291
0.866903 0.996482 0.063455
0.920323 0.995259 0.067238
0.970588 0.994739 0.068603
-0.017984 -0.139328 0.072510
0.029765 -0.139410 0.072356
0.106370 -0.139548 0.068393
0.181792 -0.139646 0.060427
0.258664 -0.139692 0.060858
0.337204 -0.139762 0.069285
0.425925 -0.139918 0.118859
0.516283 -0.140387 0.135495
0.604867 -0.141036 0.142994
0.686920 -0.141457 0.143344
0.750586 -0.141386 0.140611
0.798106 -0.141158 0.140158
0.844819 -0.140734 0.139503
0.890597 -0.140048 0.138966
0.939127 -0.139403 0.137782
0.989284 -0.139059 0.136548
0.006186 0.082381 0.109052
0.042915 0.082345 0.110185
0.085374 0.082316 0.108078
0.172042 0.082473 0.110650
0.247066 0.082554 0.112091
0.321729 0.082617 0.109845
0.406183 0.082785 0.108486
0.493174 0.083065 0.103836
0.580177 0.083434 0.087605
0.664890 0.083797 0.082861
0.734869 0.084151 0.085634
0.786128 0.084069 0.087713
0.837714 0.083860 0.087148
0.887316 0.083681 0.089367
0.937417 0.083612 0.089687
0.987679 0.083557 0.097526
0.001295 0.087643 0.103436
0.041254 0.086574 0.103344
0.082039 0.086155 0.104467
0.166540 0.084342 0.102159
0.244074 0.083139 0.100960
0.320023 0.083229 0.100880
0.400963 0.084277 0.098979
0.486700 0.085874 0.098356
0.575433 0.088826 0.099928
0.660729 0.100169 0.102169
0.736005 0.103777 0.103651
0.787242 0.105740 0.103603
0.838766 0.106370 0.103548
0.888231 0.108199 0.104580
0.938139 0.107921 0.104186
0.988382 0.108233 0.104396
0.001181 0.167512 0.106194
0.049290 0.167321 0.105390
0.082270 0.165939 0.099726
0.131048 0.161157 0.089273
0.230746 0.164855 0.091211
0.306999 0.166268 0.095765
0.385196 0.161714 0.097574
0.473940 0.157263 0.099420
0.566620 0.160119 0.101111
0.655526 0.164212 0.102663
0.736077 0.165926 0.104574
0.787242 0.164153 0.104354
0.838196 0.162601 0.104836
0.887964 0.161283 0.104512
0.937768 0.160174 0.104955
0.988179 0.160328 0.105100
0.001548 0.241924 0.105914
0.049567 0.241719 0.105203
0.086573 0.240102 0.103817
0.132317 0.235025 0.090098
0.217175 0.228883 0.095311
0.297052 0.233520 0.095700
0.374525 0.237623 0.096995
0.456462 0.239909 0.098267
0.549879 0.237751 0.100081
0.642713 0.228646 0.102005
0.731395 0.220421 0.103883
0.789629 0.218186 0.104010
0.838673 0.218051 0.104772
0.887821 0.218573 0.104462
0.937877 0.218513 0.104908
0.988241 0.219056 0.105037
0.002255 0.312053 0.106820
0.049790 0.311859 0.105574
0.089891 0.310286 0.105262
0.151956 0.307725 0.088866
0.202346 0.304899 0.095973
0.289517 0.299688 0.095623
0.366902 0.302940 0.096397
0.448621 0.308212 0.097742
0.535195 0.312889 0.099162
0.628031 0.315647 0.100907
0.721968 0.311524 0.102973
0.790699 0.305420 0.104451
0.838855 0.298244 0.104597
0.889581 0.294955 0.104594
0.938657 0.291732 0.104736
0.987835 0.291409 0.104826
0.003103 0.384340 0.110287
0.050587 0.384650 0.108813
0.097357 0.384140 0.108030
0.130654 0.382677 0.097123
0.208571 0.381627 0.090525
0.268636 0.377091 0.096988
0.360800 0.371406 0.096799
0.441062 0.374299 0.097109
0.529101 0.380745 0.098748
0.618267 0.385737 0.100247
0.713297 0.387037 0.102834
0.791222 0.385532 0.103880
0.839215 0.382558 0.103770
0.889248 0.381671 0.104508
0.938309 0.379742 0.104277
0.987032 0.380218 0.104332
0.004120 0.459939 0.115559
0.051568 0.459542 0.114359
0.099114 0.458411 0.113566
0.133509 0.456610 0.112128
0.207134 0.458249 0.085163
0.261151 0.455048 0.091534
0.346848 0.450852 0.097931
0.433915 0.446726 0.097630
0.517853 0.447809 0.097991
0.609608 0.456249 0.099760
0.699747 0.459499 0.101176
0.786033 0.459198 0.103610
0.839701 0.457163 0.103552
0.888905 0.456188 0.103461
0.937992 0.454886 0.104000
0.986420 0.455496 0.103994
0.005240 0.538135 0.125335
0.052744 0.537555 0.123649
0.100730 0.537199 0.121569
0.145202 0.534671 0.119803
0.176157 0.534261 0.114552
0.264360 0.534597 0.088797
0.319690 0.527674 0.099124
0.428272 0.523668 0.098939
0.511351 0.519689 0.098244
0.599229 0.523498 0.099180
0.691171 0.530586 0.100922
0.780662 0.531329 0.103508
0.840962 0.527805 0.102997
0.888208 0.526984 0.102793
0.937322 0.525276 0.103634
0.985850 0.525725 0.103591
0.006360 0.614397 0.134567
0.053939 0.614009 0.133183
0.100543 0.613971 0.131459
0.150140 0.612491 0.129890
0.191362 0.610439 0.128151
0.225515 0.611665 0.081389
0.319185 0.610662 0.097658
0.402424 0.602585 0.100931
0.508220 0.597942 0.099488
0.587782 0.595467 0.099083
0.678173 0.599405 0.099203
0.771675 0.602171 0.102145
0.842727 0.599677 0.102554
0.887964 0.596790 0.103811
0.937392 0.595547 0.104060
0.985969 0.595624 0.104024
0.007439 0.687200 0.140172
0.055052 0.686661 0.139041
0.102703 0.686443 0.137735
0.149625 0.685296 0.136080
0.195647 0.683537 0.135212
0.238760 0.683189 0.128526
0.305385 0.686923 0.085353
0.368054 0.683902 0.098223
0.487672 0.675574 0.100241
0.583040 0.671315 0.099685
0.665863 0.670455 0.100158
0.757107 0.672461 0.100767
0.839904 0.669940 0.104020
0.887899 0.667799 0.102962
0.936137 0.666244 0.103975
0.985451 0.665923 0.104573
0.008661 0.759891 0.146173
0.056309 0.759456 0.145284
0.102547 0.758048 0.143718
0.151832 0.757409 0.142942
0.198117 0.756062 0.142007
0.245017 0.754249 0.140666
0.292027 0.755082 0.130721
0.351097 0.758379 0.106868
0.439029 0.755550 0.104654
0.572361 0.747543 0.099583
0.659317 0.742489 0.097476
0.742636 0.742865 0.099516
0.833468 0.741225 0.105345
0.887486 0.738703 0.108156
0.935945 0.737272 0.107882
0.986399 0.737310 0.109172
0.009648 0.824668 0.153119
0.057303 0.824848 0.152368
0.104951 0.824796 0.151406
0.152301 0.824999 0.150320
0.200386 0.824642 0.149551
0.246740 0.823639 0.148855
0.296846 0.823601 0.145771
0.343462 0.825610 0.131249
0.338412 0.828022 0.115853
0.541982 0.826465 0.114285
0.646548 0.820365 0.109912
0.731209 0.817678 0.107040
0.820991 0.814540 0.110042
0.887895 0.810557 0.112843
0.936097 0.809260 0.112990
0.986717 0.808615 0.113500
0.009789 0.873634 0.154177
0.057470 0.873942 0.153450
0.104622 0.873866 0.152283
0.152490 0.874903 0.151771
0.200023 0.874517 0.150709
0.246161 0.875076 0.150368
0.295679 0.875172 0.149683
0.350557 0.877134 0.141641
0.343630 0.879500 0.119749
0.500243 0.882144 0.120752
0.627874 0.881150 0.119081
0.716093 0.880437 0.116509
0.804284 0.880163 0.115108
0.880565 0.876676 0.117089
0.927640 0.875204 0.117962
0.978985 0.875282 0.118065
0.009917 0.922476 0.155806
0.057734 0.922677 0.155112
0.104664 0.922574 0.154369
0.153850 0.923121 0.153745
0.201764 0.923043 0.151955
0.251701 0.923664 0.151492
0.301546 0.923293 0.151376
0.356551 0.924629 0.145041
0.396577 0.926599 0.126489
0.474330 0.928680 0.120208
0.620419 0.927845 0.119602
0.710703 0.927235 0.117921
0.798463 0.926703 0.115152
0.877476 0.924783 0.117104
0.927622 0.923197 0.120377
0.978171 0.923142 0.119920
0.014505 0.994121 0.159090
0.060699 0.994336 0.158652
0.099015 0.994601 0.158366
0.122714 0.994876 0.158214
0.154934 0.994816 0.158292
0.184556 0.995301 0.156999
0.212031 0.995111 0.156301
0.241562 0.996175 0.151320
0.270454 0.997558 0.138515
0.310366 0.999619 0.130220
0.570971 0.999652 0.116653
0.683998 0.998783 0.114018
0.783531 0.998529 0.111644
0.867281 0.996802 0.112579
0.919014 0.994789 0.118540
0.969623 0.994381 0.119905
-0.030390 -0.139287 0.184586
0.017010 -0.139373 0.182968
0.082236 -0.139520 0.179682
0.181472 -0.139635 0.174618
0.256827 -0.139722 0.170516
0.336769 -0.139798 0.177666
0.425115 -0.139943 0.191267
0.518710 -0.140336 0.199534
0.605224 -0.141079 0.199410
0.686613 -0.141730 0.196935
0.750408 -0.141781 0.194991
0.797276 -0.141491 0.193702
0.844361 -0.141001 0.192847
0.891099 -0.140123 0.191772
0.939271 -0.139258 0.190051
0.989431 -0.138828 0.188936
0.010742 0.082351 0.181978
0.053946 0.082278 0.183718
0.112149 0.082373 0.182154
0.173770 0.082491 0.177341
0.245840 0.082560 0.178405
0.322006 0.082631 0.180058
0.405985 0.082779 0.183851
0.495255 0.083064 0.181753
0.581156 0.083456 0.174106
0.664688 0.083871 0.169087
0.733792 0.084088 0.169076
0.785478 0.084168 0.166860
0.837793 0.083947 0.166090
0.886967 0.083745 0.165051
0.937460 0.083618 0.164414
0.987716 0.083523 0.164763
0.001597 0.108828 0.175258
0.041173 0.108113 0.175427
0.082445 0.100997 0.178782
0.167546 0.082476 0.175810
0.243539 0.083521 0.173960
0.319114 0.086615 0.174514
0.401418 0.097926 0.177112
0.487884 0.100637 0.175734
0.575677 0.102760 0.170151
0.660121 0.104602 0.167783
0.735990 0.105826 0.167044
0.787391 0.107128 0.165598
0.838586 0.106744 0.163949
0.887936 0.107037 0.163408
0.938077 0.107571 0.162421
0.988174 0.107754 0.162578
0.001024 0.167865 0.168887
0.048516 0.167545 0.168486
0.083132 0.167278 0.168331
0.124461 0.167916 0.172576
0.238907 0.162010 0.167714
0.317825 0.150809 0.163236
0.395526 0.123107 0.162115
0.482692 0.123262 0.160434
0.572200 0.125836 0.157694
0.657988 0.131342 0.149160
0.737938 0.150134 0.150909
0.789291 0.151778 0.150373
0.839602 0.149974 0.151187
0.888711 0.150982 0.150721
0.938711 0.149926 0.151207
0.988890 0.150424 0.151498
0.001348 0.237511 0.170620
0.049098 0.236913 0.170122
0.091037 0.235871 0.168355
0.123813 0.236110 0.165613
0.213414 0.236277 0.157707
0.304870 0.233569 0.150506
0.382594 0.236060 0.148525
0.464005 0.234970 0.146842
0.554925 0.230152 0.149073
0.645107 0.222242 0.150650
0.732333 0.216517 0.152573
0.790606 0.215299 0.152515
0.839198 0.215441 0.152493
0.889111 0.216300 0.153052
0.938598 0.216398 0.152758
0.988683 0.216854 0.152938
0.002203 0.310538 0.169567
0.049671 0.310393 0.167944
0.096626 0.308875 0.166337
0.131983 0.308249 0.162850
0.165131 0.309554 0.139721
0.288250 0.300590 0.144951
0.368197 0.303349 0.144755
0.449978 0.307930 0.145786
0.536656 0.312471 0.146823
0.628907 0.314497 0.148632
0.722717 0.309832 0.150809
0.791944 0.302007 0.151445
0.838971 0.295446 0.152467
0.890502 0.291816 0.152430
0.939324 0.288616 0.152621
0.988341 0.288686 0.152683
0.003058 0.383048 0.167788
0.050518 0.383105 0.165661
0.098103 0.382730 0.163233
0.136180 0.380932 0.159735
0.202115 0.382484 0.132974
0.265307 0.378612 0.145460
0.360869 0.371631 0.144817
0.441523 0.374135 0.144406
0.530026 0.380383 0.146172
0.619123 0.385269 0.147928
0.713892 0.386253 0.149809
0.791683 0.384683 0.152022
0.840452 0.380646 0.151951
0.889968 0.380099 0.151451
0.938791 0.378569 0.152094
0.987488 0.379130 0.152104
0.004096 0.459245 0.167955
0.051561 0.458831 0.166960
0.098957 0.457670 0.165558
0.145426 0.456895 0.165563
0.175039 0.458350 0.129830
