luts/Cinematic4.cube
LUT_3D_SIZE 16
-0.003414 -0.002670 -0.000520
0.052917 0.005350 0.002281
0.152627 0.021522 0.016467
0.270803 0.040086 0.035144
0.381321 0.059413 0.056728
0.465194 0.078921 0.070521
0.547190 0.092893 0.087997
0.617963 0.106261 0.098053
0.676606 0.119762 0.112456
0.730051 0.132583 0.126048
0.775519 0.138419 0.131203
0.819730 0.140497 0.132783
0.864018 0.142775 0.134632
0.908200 0.144942 0.136482
0.952365 0.147100 0.138331
0.996685 0.149389 0.140484
0.003585 0.053744 0.001504
0.036962 0.053405 -0.002281
0.129922 0.064038 0.009199
0.241410 0.081068 0.026319
0.362125 0.099448 0.048778
0.453339 0.119191 0.065249
0.539901 0.135507 0.084216
0.614560 0.148998 0.095608
0.674678 0.162798 0.109490
0.729594 0.176176 0.124386
0.775563 0.183227 0.130670
0.819737 0.185323 0.132346
0.863979 0.187539 0.134255
0.908223 0.189721 0.136098
0.952411 0.191831 0.138066
0.996644 0.194149 0.140244
0.006792 0.124122 0.003761
0.051512 0.122686 0.003409
0.111093 0.120562 -0.002129
0.203893 0.130148 0.014013
0.314734 0.144677 0.031562
0.427319 0.161595 0.053063
0.523994 0.178170 0.075022
0.608712 0.191349 0.091500
0.671551 0.204926 0.105431
0.728420 0.218784 0.122066
0.775617 0.227908 0.130208
0.819781 0.229957 0.131981
0.863987 0.232192 0.133886
0.908279 0.234354 0.135805
0.952456 0.236489 0.137799
0.996695 0.238759 0.140012
0.007839 0.199237 0.010102
0.053557 0.198412 0.009702
0.104836 0.195432 0.008867
0.183285 0.191201 0.007272
0.287006 0.202151 0.020421
0.397699 0.218110 0.040031
0.498832 0.232062 0.059133
0.594949 0.243607 0.079922
0.666650 0.253428 0.097624
0.725690 0.265261 0.115666
0.775754 0.275893 0.128413
0.819913 0.276970 0.131424
0.864136 0.278509 0.133581
0.908352 0.280201 0.135635
0.952524 0.281855 0.137724
0.996835 0.284062 0.139951
0.009934 0.273486 0.018208
0.055377 0.273137 0.017630
0.099177 0.271647 0.015980
0.168192 0.267553 0.012727
0.262721 0.264889 0.011265
0.371295 0.277830 0.028479
0.474170 0.292302 0.047074
0.573126 0.303472 0.066547
0.656440 0.311493 0.083548
0.718858 0.320139 0.098863
0.774853 0.329932 0.116046
0.819829 0.331372 0.123911
0.864090 0.331877 0.127898
0.908387 0.332934 0.130676
0.952668 0.333929 0.133502
0.996923 0.335858 0.135712
0.014487 0.349773 0.026151
0.059623 0.349308 0.025897
0.103705 0.347907 0.025186
0.152578 0.346496 0.023488
0.243929 0.340799 0.016688
0.346447 0.340943 0.018423
0.451422 0.355182 0.036235
0.551121 0.366139 0.054733
0.643978 0.374486 0.073280
0.710907 0.381158 0.087151
0.771316 0.388989 0.101334
0.819564 0.391941 0.111196
0.863910 0.391505 0.114823
0.908212 0.391951 0.117944
0.952634 0.392229 0.120823
0.996981 0.393778 0.123089
0.019614 0.425344 0.034224
0.064481 0.424911 0.033901
0.109026 0.423732 0.033409
0.153416 0.422042 0.032741
0.222138 0.419601 0.030064
0.326211 0.415011 0.022398
0.424944 0.419287 0.024984
0.527783 0.431124 0.043058
0.625610 0.439104 0.061924
0.700436 0.445226 0.076887
0.764226 0.451105 0.090051
0.818172 0.455187 0.098787
0.863563 0.454513 0.102084
0.908242 0.454666 0.105552
0.952737 0.454594 0.109119
0.997260 0.455972 0.111586
0.024670 0.499887 0.042795
0.069390 0.499588 0.042617
0.113946 0.498706 0.042243
0.157704 0.497028 0.041602
0.206186 0.497638 0.041735
0.301573 0.493372 0.035844
0.402392 0.491698 0.030016
0.500903 0.496109 0.033484
0.603460 0.504034 0.050352
0.690909 0.510687 0.068169
0.757385 0.515178 0.081068
0.815371 0.519968 0.090902
0.862186 0.519340 0.094015
0.907552 0.519006 0.096313
0.952675 0.518595 0.098627
0.997457 0.519849 0.100870
0.029495 0.572105 0.051205
0.074250 0.571745 0.051185
0.118851 0.571001 0.051025
0.163126 0.569541 0.050623
0.208234 0.568845 0.050608
0.277599 0.570375 0.050277
0.382169 0.565913 0.043278
0.478066 0.568067 0.041193
0.579358 0.569517 0.039955
0.676636 0.575328 0.058066
0.750013 0.579407 0.072733
0.812659 0.583625 0.084192
0.861440 0.584311 0.088028
0.906956 0.583590 0.089773
0.952216 0.582999 0.091848
0.997265 0.583971 0.094535
0.035452 0.643179 0.059581
0.080098 0.642670 0.059626
0.124640 0.642006 0.059575
0.169068 0.640867 0.059415
0.213491 0.639557 0.059283
0.264692 0.642106 0.061052
0.362277 0.638515 0.055571
0.458358 0.638764 0.053350
0.557385 0.639002 0.047883
0.656355 0.640229 0.049704
0.741318 0.644910 0.064188
0.809081 0.647280 0.077305
0.861835 0.649445 0.083323
0.906892 0.648151 0.085443
0.952151 0.647121 0.088796
0.997331 0.647737 0.092006
0.041214 0.712378 0.068400
0.085885 0.712460 0.068526
0.130446 0.712244 0.068576
0.174855 0.711471 0.068400
0.219007 0.710276 0.068078
0.265650 0.710686 0.068626
0.337708 0.712555 0.070497
0.437985 0.709032 0.064196
0.538094 0.708780 0.060943
0.633808 0.707061 0.054494
0.726991 0.708614 0.058746
0.802253 0.709372 0.070534
0.860791 0.711390 0.082315
0.906501 0.710320 0.085633
0.951629 0.709388 0.087084
0.996889 0.709645 0.088492
0.046866 0.779569 0.077530
0.091482 0.779592 0.077641
0.136000 0.779452 0.077609
0.180434 0.778978 0.077462
0.224732 0.778012 0.077153
0.269435 0.777224 0.076984
0.326121 0.780094 0.079199
0.414342 0.779969 0.078665
0.513642 0.778214 0.073280
0.611437 0.776300 0.068048
0.703849 0.775284 0.064120
0.791710 0.773463 0.067947
0.857294 0.772366 0.078356
0.905438 0.770703 0.083976
0.950537 0.769088 0.086070
0.995832 0.768966 0.088740
0.050137 0.836447 0.082668
0.094885 0.837079 0.083060
0.139533 0.837707 0.083358
0.184132 0.838239 0.083622
0.228659 0.838507 0.083795
0.272869 0.838480 0.083798
0.321968 0.840727 0.085077
0.391554 0.846117 0.090954
0.487515 0.844603 0.086303
0.588618 0.842496 0.079995
0.681102 0.841681 0.076628
0.772873 0.840994 0.073091
0.849791 0.838929 0.078106
0.903503 0.836285 0.085863
0.948721 0.833674 0.087099
0.994207 0.833070 0.089306
0.051114 0.884070 0.084227
0.095821 0.884641 0.084586
0.140442 0.885266 0.084907
0.185009 0.885823 0.085154
0.229575 0.886375 0.085409
0.274092 0.886875 0.085633
0.320453 0.888422 0.086311
0.384797 0.893456 0.093758
0.470200 0.895857 0.095347
0.571857 0.894865 0.086536
0.666434 0.894624 0.084529
0.758159 0.896088 0.082762
0.840633 0.897224 0.082909
0.903534 0.899334 0.091456
0.948767 0.898359 0.092955
0.994297 0.898077 0.094568
0.052061 0.931794 0.085788
0.096737 0.932353 0.086135
0.141348 0.932908 0.086472
0.185912 0.933444 0.086736
0.230475 0.933936 0.086970
0.275032 0.934452 0.087237
0.319820 0.935349 0.087473
0.382612 0.938551 0.095129
0.465992 0.940697 0.104449
0.561596 0.941845 0.090162
0.657405 0.941000 0.086908
0.748759 0.942032 0.086318
0.834150 0.943120 0.084876
0.901031 0.945946 0.091044
0.949461 0.946743 0.095154
0.994933 0.946735 0.096997
0.053832 0.984857 0.088413
0.098073 0.985381 0.088703
0.140179 0.985899 0.088654
0.176404 0.986376 0.087780
0.198426 0.986851 0.085963
0.181698 0.987287 0.085272
0.210045 0.987555 0.085629
0.270290 0.989032 0.091543
0.444836 0.991160 0.106716
0.549531 0.993084 0.093279
0.649216 0.992612 0.087410
0.742947 0.993424 0.087021
0.830395 0.994599 0.085182
0.898836 0.997194 0.091041
0.948841 0.998676 0.094844
0.994928 0.999238 0.096974
-0.012063 -0.084962 0.022597
0.051399 -0.085069 0.023035
0.154978 -0.084393 0.033883
0.269182 -0.081383 0.075420
0.381183 -0.074303 0.097078
0.467085 -0.058342 0.109443
0.549828 -0.033231 0.124239
0.621319 0.057583 0.134753
0.680104 0.085115 0.150720
0.733386 0.105293 0.165917
0.778322 0.114180 0.172176
0.821632 0.117358 0.174192
0.865036 0.120228 0.176303
0.908579 0.122927 0.178358
0.952533 0.125575 0.180379
0.996733 0.128551 0.182705
0.001468 0.054547 0.049985
0.036828 0.053346 0.048685
0.131492 0.063788 0.057047
0.240363 0.080815 0.072411
0.359444 0.098907 0.093857
0.451431 0.118678 0.109862
0.538313 0.135341 0.128462
0.613945 0.148979 0.140018
0.674253 0.162805 0.153653
0.729464 0.176356 0.168857
0.775612 0.183586 0.175228
0.819735 0.185720 0.177006
0.864017 0.187951 0.178858
0.908213 0.190122 0.180757
0.952393 0.192271 0.182721
0.996646 0.194582 0.184893
0.005866 0.123462 0.050156
0.051270 0.121724 0.049952
0.110901 0.119563 0.049206
0.203791 0.129325 0.060425
0.313614 0.143735 0.077221
0.426424 0.160812 0.098174
0.522351 0.177759 0.119324
0.608018 0.191307 0.136082
0.671232 0.204934 0.149701
0.728344 0.218978 0.166471
0.775602 0.228260 0.174827
0.819737 0.230302 0.176625
0.863985 0.232555 0.178498
0.908276 0.234759 0.180494
0.952439 0.236876 0.182493
0.996695 0.239162 0.184675
0.007653 0.198202 0.057043
0.053836 0.197222 0.056538
0.104800 0.194257 0.055861
0.182871 0.190069 0.054135
0.286378 0.201258 0.066251
0.396789 0.217182 0.085192
0.497874 0.231286 0.103886
0.594156 0.243120 0.124652
0.666335 0.253171 0.142160
0.725495 0.265185 0.160147
0.775649 0.276018 0.173017
0.819894 0.277255 0.176097
0.864097 0.278773 0.178211
0.908321 0.280535 0.180270
0.952502 0.282204 0.182366
0.996846 0.284426 0.184607
0.009836 0.272643 0.064796
0.055403 0.272275 0.064324
0.099475 0.270751 0.062883
0.168074 0.266431 0.059634
0.262123 0.263867 0.057273
0.370448 0.276735 0.073665
0.473172 0.291359 0.091840
0.572224 0.302711 0.111102
0.656215 0.311023 0.128227
0.718713 0.319814 0.143539
0.774866 0.329726 0.160680
0.819820 0.331396 0.168914
0.864100 0.331920 0.172776
0.908373 0.332989 0.175544
0.952689 0.334055 0.178363
0.996896 0.336033 0.180611
0.014375 0.349283 0.072127
0.059669 0.348733 0.072326
0.103814 0.347272 0.071741
0.152262 0.345709 0.069977
0.242803 0.340034 0.063079
0.345472 0.340102 0.063435
0.450794 0.354353 0.081062
0.550524 0.365440 0.099395
0.643704 0.373971 0.117841
0.710831 0.380779 0.131734
0.771260 0.388710 0.145894
0.819534 0.391840 0.156039
0.863903 0.391403 0.159584
0.908224 0.391929 0.162721
0.952656 0.392227 0.165672
0.996978 0.393811 0.167924
0.019537 0.425061 0.079836
0.064554 0.424558 0.079893
0.109120 0.423372 0.079531
0.153639 0.421655 0.078899
0.221348 0.419245 0.075951
0.325276 0.414537 0.068092
0.424218 0.418593 0.069663
0.527193 0.430479 0.087653
0.624939 0.438591 0.106384
0.700372 0.444902 0.121434
0.764207 0.450845 0.134585
0.818272 0.455083 0.143427
0.863590 0.454379 0.146792
0.908292 0.454588 0.150320
0.952744 0.454603 0.153878
0.997294 0.455977 0.156342
0.024668 0.499910 0.088171
0.069512 0.499589 0.088130
0.114054 0.498675 0.087790
0.157840 0.497015 0.087160
0.205997 0.497392 0.087155
0.300554 0.493172 0.081352
0.401747 0.491209 0.075378
0.500077 0.495661 0.078749
0.602956 0.503698 0.094784
0.690762 0.510499 0.112633
0.757346 0.515048 0.125519
0.815398 0.519854 0.135425
0.862312 0.519302 0.138533
0.907592 0.518930 0.140978
0.952704 0.518540 0.143284
0.997475 0.519811 0.145401
0.029541 0.572235 0.096466
0.074466 0.571771 0.096665
0.119086 0.571015 0.096557
0.163345 0.569563 0.096104
0.208515 0.568861 0.096025
0.275917 0.570568 0.095701
0.381188 0.565911 0.088528
0.477228 0.567920 0.086418
0.578569 0.569232 0.085157
0.676331 0.575101 0.102428
0.749946 0.579380 0.117164
0.812667 0.583542 0.128601
0.861546 0.584317 0.132463
0.906985 0.583613 0.134220
0.952206 0.582992 0.136389
0.997342 0.583987 0.139013
0.035452 0.643288 0.104742
0.080262 0.642812 0.104866
0.124832 0.642072 0.104880
0.169262 0.640962 0.104695
0.213725 0.639651 0.104543
0.264223 0.642056 0.105975
0.361214 0.638619 0.100729
0.457571 0.638751 0.098314
0.556735 0.638969 0.092955
0.655702 0.640174 0.094610
0.741128 0.644844 0.108568
0.809023 0.647215 0.121685
0.861839 0.649411 0.128071
0.906894 0.648134 0.130182
0.952136 0.647089 0.133540
0.997360 0.647705 0.136721
0.041297 0.712647 0.113621
0.086082 0.712766 0.113862
0.130643 0.712460 0.113913
0.175057 0.711677 0.113689
0.219200 0.710453 0.113301
0.265720 0.710816 0.113616
0.336665 0.712725 0.115481
0.437186 0.709052 0.109111
0.537395 0.708790 0.105904
0.633159 0.707123 0.099547
0.726452 0.708563 0.103683
0.801982 0.709313 0.115282
0.860789 0.711422 0.127069
0.906501 0.710331 0.130374
0.951625 0.709369 0.131814
0.996887 0.709621 0.133248
0.046945 0.779850 0.122564
0.091622 0.779828 0.122820
0.136172 0.779715 0.122902
0.180620 0.779292 0.122795
0.224898 0.778309 0.122495
0.269636 0.777502 0.122254
0.325445 0.780288 0.124063
0.413234 0.780202 0.123683
0.512788 0.778318 0.118227
0.610660 0.776423 0.113034
0.703266 0.775304 0.109042
0.791302 0.773516 0.112809
0.857162 0.772342 0.123180
0.905394 0.770748 0.128907
0.950591 0.769060 0.131012
0.995781 0.768955 0.133653
0.050269 0.836879 0.127699
0.095068 0.837554 0.128171
0.139723 0.838171 0.128540
0.184376 0.838712 0.128895
0.228895 0.838951 0.129065
0.273122 0.838892 0.129080
0.321878 0.840984 0.130282
0.390473 0.846461 0.135828
0.486573 0.844837 0.131345
0.587880 0.842714 0.124868
0.680547 0.841810 0.121515
0.772372 0.841077 0.118008
0.849577 0.838990 0.122809
0.903478 0.836276 0.130711
0.948681 0.833764 0.131916
0.994130 0.833138 0.134136
0.051226 0.884476 0.129168
0.095991 0.885101 0.129643
0.140590 0.885691 0.129950
0.185210 0.886238 0.130298
0.229803 0.886798 0.130585
0.274321 0.887329 0.130821
0.320397 0.888758 0.131472
0.384458 0.893558 0.138855
0.469795 0.896076 0.141311
0.571104 0.895229 0.131584
0.665934 0.894882 0.129541
0.757578 0.896398 0.127872
0.840347 0.897458 0.127900
0.903445 0.899503 0.136225
0.948804 0.898521 0.137723
0.994324 0.898152 0.139379
0.052168 0.932199 0.130675
0.096909 0.932819 0.131145
0.141486 0.933357 0.131454
0.186096 0.933899 0.131808
0.230672 0.934395 0.132092
0.275203 0.934890 0.132349
0.319915 0.935765 0.132589
0.382451 0.938704 0.140355
0.465924 0.940824 0.150367
0.560862 0.942147 0.135327
0.656913 0.941329 0.131849
0.748222 0.942225 0.131407
0.833823 0.943429 0.129833
0.900884 0.946188 0.135960
0.949593 0.947072 0.140075
0.994970 0.947055 0.141906
0.053924 0.985243 0.133216
0.098326 0.985744 0.133631
0.140834 0.986328 0.133644
0.178081 0.986830 0.132927
0.203306 0.987272 0.131314
0.184393 0.987503 0.130671
0.211165 0.987759 0.131068
0.270204 0.989207 0.136885
0.443973 0.991290 0.151636
0.548971 0.993357 0.138678
0.648677 0.992899 0.132385
0.742427 0.993716 0.132114
0.830158 0.994871 0.130200
0.898724 0.997381 0.136003
0.948846 0.998849 0.139774
0.995057 0.999434 0.141890
-0.010869 -0.085013 0.120204
0.057150 -0.085162 0.117344
0.146936 -0.085044 0.121583
0.260429 -0.082796 0.135115
0.373982 -0.076372 0.150537
0.464383 -0.060119 0.160493
0.549063 -0.034950 0.173258
0.620919 0.056172 0.181615
0.679975 0.084652 0.196326
0.733341 0.104903 0.210667
0.778332 0.114115 0.216641
0.821670 0.117269 0.218577
0.865061 0.120186 0.220638
0.908590 0.122837 0.222642
0.952531 0.125515 0.224643
0.996754 0.128571 0.226994
0.004973 0.059172 0.116390
0.051746 0.057616 0.115074
0.129422 0.060819 0.117784
0.236590 0.078228 0.129568
0.353846 0.096869 0.146036
0.448426 0.117945 0.159181
0.537061 0.135564 0.176352
0.613376 0.149169 0.186351
0.673974 0.162918 0.198711
0.729428 0.176541 0.213557
0.775534 0.183958 0.220005
0.819728 0.186052 0.221638
0.864021 0.188248 0.223443
0.908216 0.190435 0.225342
0.952414 0.192579 0.227244
0.996674 0.194891 0.229445
0.004692 0.122360 0.110210
0.050368 0.120727 0.109087
0.112329 0.118278 0.107207
0.203385 0.128314 0.114985
0.313902 0.142845 0.127783
0.424730 0.159944 0.146248
0.519286 0.177028 0.164413
0.606760 0.191255 0.180887
0.670703 0.204911 0.194048
0.728105 0.218999 0.210908
0.775665 0.228613 0.219448
0.819724 0.230698 0.221226
0.864003 0.232932 0.223119
0.908230 0.235152 0.225113
0.952438 0.237322 0.227108
0.996686 0.239601 0.229269
0.007157 0.196438 0.110077
0.053440 0.195447 0.108898
0.104523 0.192321 0.106861
0.181685 0.188317 0.103564
0.285581 0.199886 0.113098
0.395869 0.215891 0.130765
0.496419 0.230188 0.148877
0.592947 0.242419 0.169476
0.665876 0.252780 0.186590
0.725210 0.264989 0.204452
0.775624 0.276150 0.217454
0.819862 0.277528 0.220712
0.864090 0.279114 0.222809
0.908290 0.280887 0.224951
0.952576 0.282616 0.226996
0.996847 0.284837 0.229237
0.009715 0.271473 0.111967
0.055282 0.271136 0.111285
0.099715 0.269526 0.110097
0.167724 0.264942 0.106847
0.261001 0.262324 0.103535
0.369357 0.275372 0.118838
0.471897 0.290171 0.136487
0.571047 0.301749 0.155528
0.655847 0.310337 0.172804
0.718447 0.319283 0.188176
0.774802 0.329406 0.205374
0.819828 0.331338 0.213805
0.864097 0.332005 0.217622
0.908375 0.333129 0.220286
0.952689 0.334279 0.223036
0.996915 0.336286 0.225354
0.014211 0.348382 0.117999
0.059517 0.347826 0.118153
0.103807 0.346263 0.117795
0.152142 0.344513 0.116342
0.241565 0.338986 0.109402
0.344140 0.338987 0.108589
0.449868 0.353261 0.125802
0.549622 0.364520 0.143934
0.643381 0.373245 0.162352
0.710657 0.380233 0.176222
0.771139 0.388296 0.190395
0.819596 0.391661 0.200842
0.863909 0.391329 0.204378
0.908219 0.391918 0.207507
0.952618 0.392285 0.210436
0.996986 0.393961 0.212739
0.019440 0.424517 0.125361
0.064460 0.424004 0.125398
0.109143 0.422835 0.125304
0.153834 0.421018 0.124884
0.220590 0.418630 0.121799
0.324061 0.413781 0.113723
0.423345 0.417646 0.114508
0.526430 0.429694 0.132221
0.624107 0.437919 0.150749
0.700222 0.444404 0.165949
0.764103 0.450517 0.179114
0.818263 0.454908 0.188050
0.863632 0.454297 0.191434
0.908271 0.454533 0.194981
0.952742 0.454626 0.198533
0.997319 0.456094 0.200986
0.024623 0.499681 0.133422
0.069464 0.499355 0.133354
0.114089 0.498369 0.133126
0.157916 0.496700 0.132565
0.206167 0.496893 0.132564
0.299119 0.492872 0.126787
0.400975 0.490646 0.120646
0.499128 0.495050 0.123969
0.602372 0.503298 0.139175
0.690660 0.510195 0.157124
0.757270 0.514860 0.169942
0.815433 0.519722 0.179897
0.862341 0.519228 0.183064
0.907572 0.518880 0.185619
0.952622 0.518498 0.187938
0.997532 0.519791 0.189898
0.029564 0.572214 0.141633
0.074488 0.571748 0.141773
0.119237 0.570942 0.141849
0.163548 0.569461 0.141530
0.208766 0.568745 0.141353
0.274215 0.570640 0.141026
0.380232 0.565735 0.133638
0.476383 0.567580 0.131463
0.577724 0.568842 0.130262
0.675898 0.574787 0.146749
0.749801 0.579179 0.161563
0.812632 0.583433 0.173042
0.861634 0.584318 0.176917
0.907025 0.583575 0.178687
0.952214 0.583013 0.180890
0.997461 0.584020 0.183500
0.035464 0.643347 0.149909
0.080267 0.642832 0.149986
0.124931 0.642110 0.150024
0.169418 0.641001 0.149896
0.213931 0.639671 0.149692
0.263581 0.641957 0.150848
0.359911 0.638696 0.145841
0.456668 0.638659 0.143246
0.555938 0.638886 0.137997
0.654992 0.639966 0.139494
0.740914 0.644807 0.152901
0.809001 0.647081 0.166080
0.861861 0.649356 0.172759
0.906896 0.648064 0.174884
0.952142 0.647113 0.178278
0.997375 0.647754 0.181425
0.041345 0.712830 0.158815
0.086119 0.712909 0.158955
0.130743 0.712566 0.159004
0.175191 0.711742 0.158868
0.219343 0.710463 0.158381
0.265856 0.710811 0.158547
0.335560 0.712796 0.160454
0.436349 0.709054 0.153979
0.536627 0.708768 0.150807
0.632368 0.707056 0.144545
0.725813 0.708423 0.148492
0.801732 0.709287 0.160004
0.860788 0.711413 0.171819
0.906518 0.710381 0.175119
0.951617 0.709381 0.176532
0.996861 0.709648 0.177934
0.046994 0.780042 0.167665
0.091692 0.780071 0.167855
0.136266 0.779963 0.168000
0.180734 0.779496 0.167978
0.225060 0.778542 0.167732
0.269824 0.777762 0.167454
0.324882 0.780387 0.168880
0.412082 0.780458 0.168666
0.511824 0.778438 0.163119
0.609913 0.776450 0.157940
0.702663 0.775209 0.153890
0.790983 0.773457 0.157613
0.857001 0.772240 0.167951
0.905385 0.770774 0.173840
0.950559 0.769020 0.175946
0.995748 0.768948 0.178548
0.050402 0.837312 0.172849
0.095179 0.837983 0.173285
0.139895 0.838566 0.173724
0.184522 0.839123 0.174059
0.229107 0.839384 0.174285
0.273387 0.839297 0.174367
0.321898 0.841323 0.175463
0.389458 0.846804 0.180723
0.485602 0.845126 0.176372
0.587073 0.842906 0.169699
0.679915 0.841922 0.166362
0.771893 0.841110 0.162849
0.849310 0.838983 0.167469
0.903448 0.836280 0.175507
0.948637 0.833742 0.176741
0.994126 0.833232 0.178954
0.051338 0.884882 0.174308
0.096087 0.885524 0.174704
0.140768 0.886134 0.175137
0.185356 0.886661 0.175448
0.229980 0.887189 0.175780
0.274570 0.887681 0.176125
0.320564 0.889164 0.176731
0.384107 0.893779 0.183873
0.469674 0.896230 0.187126
0.570277 0.895590 0.176600
0.665411 0.895163 0.174473
0.757011 0.896605 0.172919
0.840014 0.897585 0.172876
0.903380 0.899597 0.180901
0.948775 0.898482 0.182479
0.994325 0.898260 0.184118
0.052277 0.932633 0.175779
0.097009 0.933222 0.176190
0.141663 0.933846 0.176633
0.186227 0.934336 0.176940
0.230798 0.934822 0.177297
0.275376 0.935323 0.177622
0.320135 0.936215 0.177877
0.382236 0.938790 0.185529
0.465906 0.940969 0.196179
0.560264 0.942387 0.180646
0.656454 0.941552 0.176773
0.747646 0.942514 0.176415
0.833540 0.943588 0.174797
0.900762 0.946293 0.180832
0.949610 0.947325 0.184942
0.995085 0.947176 0.186758
0.054001 0.985622 0.177864
0.098454 0.986168 0.178272
0.141489 0.986744 0.178524
0.179957 0.987281 0.177906
0.209415 0.987517 0.176669
0.189488 0.987686 0.175762
0.213139 0.987882 0.176219
0.270040 0.989382 0.181845
0.443104 0.991455 0.196288
0.548447 0.993534 0.183521
0.648184 0.993128 0.176764
0.741941 0.993937 0.176721
0.829888 0.995000 0.174785
0.898591 0.997519 0.180572
0.948919 0.999046 0.184409
0.995050 0.999685 0.186531
-0.007775 -0.085132 0.202374
0.064459 -0.085263 0.199561
0.142797 -0.085429 0.196302
0.247999 -0.084649 0.204540
0.364442 -0.080317 0.218905
0.457503 -0.067043 0.225915
0.546726 -0.043902 0.233159
0.620927 0.054468 0.237825
0.680398 0.085315 0.249150
0.733360 0.106284 0.261878
0.778498 0.115542 0.267027
0.821803 0.118390 0.267834
0.865168 0.121167 0.269335
0.908736 0.123703 0.270746
0.952679 0.126275 0.272150
0.996857 0.129286 0.274299
0.009740 0.061670 0.193255
0.059736 0.060816 0.191894
0.129032 0.058609 0.189641
0.226859 0.068869 0.195734
0.344693 0.088268 0.210309
0.442534 0.112435 0.220754
0.535634 0.133683 0.233437
0.613725 0.150608 0.241319
0.674449 0.165408 0.252159
0.729519 0.179142 0.265158
0.775682 0.186362 0.270612
0.819887 0.187988 0.270895
0.864119 0.190010 0.272130
0.908290 0.191964 0.273346
0.952589 0.193888 0.274651
0.996815 0.196182 0.276655
0.006469 0.125393 0.183247
0.054018 0.124104 0.181958
0.114471 0.121270 0.178982
0.199146 0.125132 0.181197
0.310612 0.140035 0.193061
0.422595 0.158619 0.207954
0.518194 0.177278 0.222736
0.607224 0.192977 0.235103
0.670913 0.206621 0.245364
0.728228 0.220645 0.260341
0.775732 0.230380 0.268251
0.819819 0.232032 0.268807
0.864071 0.234121 0.270227
0.908282 0.236204 0.271843
0.952545 0.238214 0.273371
0.996798 0.240502 0.275473
0.006715 0.196530 0.178169
0.053379 0.195288 0.176796
0.104199 0.192133 0.174226
0.180809 0.188025 0.169717
0.283961 0.199107 0.177641
0.397280 0.215546 0.189534
0.495517 0.230057 0.204764
0.591874 0.242786 0.220241
0.665722 0.253475 0.235467
0.725111 0.265665 0.251668
0.775591 0.277049 0.264159
0.819884 0.278309 0.266696
0.864134 0.279807 0.268440
0.908321 0.281561 0.270324
0.952530 0.283300 0.272137
0.996816 0.285585 0.274362
0.009648 0.271518 0.175492
0.055218 0.271116 0.174615
0.100104 0.269043 0.172585
0.165514 0.263875 0.167815
0.258142 0.260443 0.163043
0.368803 0.274005 0.171810
0.471811 0.289146 0.186439
0.570128 0.300937 0.202774
0.655636 0.309958 0.219167
0.718296 0.318961 0.233758
0.774649 0.329216 0.250489
0.819827 0.331468 0.259106
0.864072 0.332169 0.262635
0.908406 0.333444 0.265053
0.952674 0.334690 0.267755
0.996923 0.336736 0.270010
0.014107 0.348043 0.173537
0.059406 0.347455 0.173163
0.103813 0.345838 0.171920
0.152431 0.343377 0.170578
0.239336 0.337758 0.162186
0.341985 0.337516 0.158242
0.448794 0.351981 0.172138
0.548698 0.363506 0.189102
0.642867 0.372498 0.207068
0.710437 0.379572 0.220803
0.770908 0.387742 0.234931
0.819593 0.391417 0.245704
0.863916 0.391202 0.249219
0.908240 0.391934 0.252322
0.952642 0.392455 0.255130
0.997007 0.394148 0.257390
0.019365 0.424181 0.174038
0.064394 0.423659 0.173780
0.109054 0.422394 0.173069
0.154025 0.420393 0.172338
0.219130 0.417968 0.168984
0.322144 0.413035 0.160243
0.421968 0.416427 0.159990
0.525420 0.428695 0.176836
0.623264 0.437083 0.195125
0.700011 0.443799 0.210402
0.763997 0.449996 0.223536
0.818356 0.454651 0.232677
0.863646 0.454130 0.236123
0.908293 0.454500 0.239648
0.952768 0.454659 0.243133
0.997342 0.456208 0.245561
0.024554 0.499324 0.179088
0.069385 0.498899 0.178942
0.114014 0.497997 0.178594
0.157949 0.496203 0.178011
0.206130 0.496153 0.178122
0.297376 0.492320 0.172286
0.400001 0.489772 0.165703
