luts/Cinematic4.cube
LUT_3D_SIZE 6
-0.003414 -0.002670 -0.000520
0.270803 0.040086 0.035144
0.547190 0.092893 0.087997
0.730051 0.132583 0.126048
0.864018 0.142775 0.134632
0.996685 0.149389 0.140484
0.007839 0.199237 0.010102
0.183285 0.191201 0.007272
0.498832 0.232062 0.059133
0.725690 0.265261 0.115666
0.864136 0.278509 0.133581
0.996835 0.284062 0.139951
0.019614 0.425344 0.034224
0.153416 0.422042 0.032741
0.424944 0.419287 0.024984
0.700436 0.445226 0.076887
0.863563 0.454513 0.102084
0.997260 0.455972 0.111586
0.035452 0.643179 0.059581
0.169068 0.640867 0.059415
0.362277 0.638515 0.055571
0.656355 0.640229 0.049704
0.861835 0.649445 0.083323
0.997331 0.647737 0.092006
0.050137 0.836447 0.082668
0.184132 0.838239 0.083622
0.321968 0.840727 0.085077
0.588618 0.842496 0.079995
0.849791 0.838929 0.078106
0.994207 0.833070 0.089306
0.053832 0.984857 0.088413
0.176404 0.986376 0.087780
0.210045 0.987555 0.085629
0.549531 0.993084 0.093279
0.830395 0.994599 0.085182
0.994928 0.999238 0.096974
-0.007775 -0.085132 0.202374
0.247999 -0.084649 0.204540
0.546726 -0.043902 0.233159
0.733360 0.106284 0.261878
0.865168 0.121167 0.269335
0.996857 0.129286 0.274299
0.006715 0.196530 0.178169
0.180809 0.188025 0.169717
0.495517 0.230057 0.204764
0.725111 0.265665 0.251668
0.864134 0.279807 0.268440
0.996816 0.285585 0.274362
0.019365 0.424181 0.174038
0.154025 0.420393 0.172338
0.421968 0.416427 0.159990
0.700011 0.443799 0.210402
0.863646 0.454130 0.236123
0.997342 0.456208 0.245561
0.035438 0.643216 0.195151
0.169452 0.640870 0.195152
0.358422 0.638663 0.191036
0.654151 0.639637 0.184291
0.861853 0.649250 0.217404
0.997397 0.647777 0.226095
0.050532 0.837763 0.218215
0.184681 0.839572 0.219402
0.321960 0.841667 0.220810
0.586326 0.843075 0.214578
0.849037 0.839051 0.212120
0.994057 0.833243 0.223716
0.054075 0.985993 0.222299
0.182004 0.987555 0.222917
0.218062 0.988121 0.220876
0.548246 0.993756 0.227709
0.829614 0.995201 0.218536
0.995122 0.999908 0.230686
0.040575 -0.085175 0.440162
0.241772 -0.085359 0.436449
0.520911 -0.077115 0.450873
0.727084 0.044580 0.461227
0.862169 0.084472 0.460961
0.995043 0.098353 0.461567
0.022988 0.196669 0.418627
0.192310 0.190307 0.411492
0.477557 0.201408 0.422971
0.719124 0.242873 0.447558
0.862195 0.265683 0.451738
0.995832 0.273997 0.453425
0.021290 0.429671 0.397998
0.157338 0.424856 0.393059
0.413378 0.414368 0.376057
0.699262 0.449302 0.412889
0.863406 0.462225 0.426454
0.997522 0.465651 0.430482
0.037103 0.647768 0.376408
0.171026 0.645460 0.373516
0.342130 0.643432 0.367988
0.645500 0.639113 0.349393
0.861555 0.649973 0.369790
0.997095 0.649147 0.375953
0.051397 0.840319 0.366435
0.185356 0.841704 0.365685
0.322732 0.842822 0.364348
0.583720 0.842991 0.353164
0.847682 0.838191 0.346187
0.994086 0.832853 0.358375
0.053635 0.987532 0.355361
0.184131 0.988133 0.356253
0.240721 0.988789 0.354610
0.548687 0.994563 0.357500
0.828638 0.995962 0.343158
0.995109 1.000391 0.358911
0.072954 -0.084770 0.656912
0.258448 -0.084726 0.656665
0.501278 -0.083259 0.659368
0.720161 -0.065451 0.662286
0.858682 -0.034322 0.659034
0.992699 0.040103 0.656806
0.060544 0.192594 0.646246
0.225731 0.189408 0.644737
0.470759 0.182120 0.648131
0.711832 0.208266 0.653353
0.858516 0.236188 0.649988
0.993393 0.245079 0.648478
0.037329 0.424452 0.635080
0.175778 0.419685 0.631064
0.419975 0.415488 0.622626
0.688301 0.430834 0.629317
0.861608 0.445405 0.639642
0.996368 0.450452 0.640189
0.039680 0.652122 0.615715
0.173427 0.650431 0.613609
0.325399 0.648806 0.609472
0.639853 0.638479 0.595674
0.859864 0.661139 0.625183
0.995769 0.663135 0.627319
0.054122 0.847894 0.587316
0.187909 0.848922 0.585749
0.324790 0.848593 0.582136
0.591169 0.844914 0.581851
0.843776 0.839630 0.569272
0.993101 0.837029 0.580939
0.064536 0.991299 0.573297
0.195425 0.991760 0.571485
0.306986 0.992183 0.566865
0.567467 0.997464 0.574397
0.830097 0.998404 0.555771
0.996669 1.003076 0.564126
0.079790 -0.085551 0.804008
0.259857 -0.085392 0.806811
0.495583 -0.083798 0.813687
0.715687 -0.076026 0.814666
0.857073 -0.059196 0.815825
0.991487 -0.048731 0.816544
0.078065 0.188357 0.808683
0.239455 0.185474 0.811552
0.470875 0.181389 0.817974
0.706022 0.192326 0.819769
0.856747 0.220488 0.816579
0.992254 0.228714 0.817398
0.059285 0.411785 0.813652
0.196359 0.407576 0.813817
0.431075 0.413868 0.815108
0.678648 0.404450 0.817287
0.859102 0.415042 0.821100
0.994933 0.419493 0.821796
0.047292 0.645023 0.826290
0.182042 0.642738 0.826852
0.359995 0.634935 0.822666
0.645978 0.638766 0.818764
0.858472 0.649553 0.823708
0.994395 0.653528 0.822988
0.058184 0.852638 0.818255
0.192530 0.852898 0.816941
0.327683 0.851063 0.813306
0.592918 0.844096 0.803450
0.842188 0.838950 0.799842
0.994149 0.843150 0.807384
0.076437 0.994459 0.803810
0.208322 0.994814 0.801613
0.326728 0.995113 0.796707
0.570456 0.999598 0.794972
0.836032 1.000698 0.795798
0.998509 1.005016 0.803543
0.084383 -0.085956 0.945016
0.261124 -0.085828 0.947596
0.491114 -0.084183 0.953153
0.712599 -0.079133 0.953224
0.856315 -0.062794 0.951180
0.991152 -0.053591 0.952102
0.085893 0.185694 0.952830
0.245084 0.184452 0.954788
0.468334 0.182402 0.958607
0.702316 0.188822 0.960697
0.856126 0.217538 0.954874
0.992098 0.226356 0.955765
0.063986 0.406926 0.953692
0.200878 0.403498 0.953887
0.433194 0.413245 0.955338
0.674370 0.403200 0.958620
0.858500 0.409733 0.960744
0.994679 0.413477 0.961764
0.049694 0.637978 0.966939
0.184963 0.635641 0.967329
0.368311 0.628548 0.964027
0.645653 0.637657 0.964665
0.857022 0.640244 0.967716
0.995669 0.641631 0.970898
0.058364 0.851832 0.974528
0.192913 0.851886 0.975209
0.326540 0.849748 0.977080
0.595618 0.843346 0.972382
0.842371 0.839165 0.972165
0.994608 0.842335 0.979004
0.081451 0.991330 0.973256
0.217067 0.991792 0.974027
0.352394 0.992176 0.974718
0.582282 0.996194 0.978040
0.838473 0.996175 0.980342
0.999392 1.000016 0.986477
