luts/Cinematic2.cube
LUT_3D_SIZE 6
-0.000266 -0.001004 -0.000604
0.204754 0.003709 -0.000024
0.476887 0.003653 0.000000
0.706139 0.001916 0.000000
0.848705 0.001467 0.000000
0.997890 0.001454 0.000000
0.000000 0.169765 0.018067
0.172477 0.173653 -0.003520
0.458742 0.168449 0.000000
0.700922 0.153980 0.000000
0.848963 0.134961 0.000000
0.997997 0.134220 0.000000
-0.001645 0.377562 0.016820
0.129761 0.375311 0.014161
0.433490 0.403684 -0.001112
0.694787 0.384039 0.000000
0.856023 0.367655 0.000000
1.006163 0.363227 0.000000
0.016116 0.605624 0.023126
0.154984 0.600416 0.022830
0.380176 0.615137 0.011584
0.668455 0.644426 0.000294
0.860231 0.618878 0.000454
1.012271 0.614538 0.000591
0.030109 0.820089 0.032624
0.169612 0.818120 0.032216
0.341869 0.817724 0.027834
0.610883 0.839961 0.007277
0.857796 0.846203 0.001439
1.012505 0.843285 0.001353
0.030491 0.962945 0.033037
0.165388 0.962945 0.032064
0.246066 0.964156 0.029056
0.576699 0.983491 0.014368
0.847346 1.004867 -0.001218
1.013073 1.004890 0.008271
-0.006750 -0.064928 0.162336
0.192434 -0.065069 0.175435
0.468435 -0.065747 0.177616
0.706529 -0.071812 0.171482
0.847819 -0.077996 0.160392
0.996596 -0.078455 0.156484
0.000000 0.170759 0.169502
0.170561 0.172629 0.169160
0.456168 0.169965 0.163979
0.699682 0.153500 0.151988
0.848725 0.134132 0.142099
0.997854 0.134469 0.140989
-0.001496 0.374956 0.165239
0.130258 0.372855 0.158686
0.431136 0.401187 0.138228
0.693380 0.382066 0.139806
0.855930 0.365682 0.140000
1.005931 0.361291 0.140000
0.015897 0.604033 0.163042
0.154862 0.598932 0.162754
0.378280 0.613339 0.151769
0.667162 0.642966 0.140264
0.860249 0.617246 0.140513
1.012258 0.612850 0.140621
0.029952 0.819446 0.172491
0.169461 0.817540 0.172098
0.340497 0.816963 0.167879
0.609573 0.839471 0.147219
0.857491 0.845722 0.141499
1.012505 0.842656 0.141468
0.030491 0.962940 0.172206
0.168430 0.962943 0.170857
0.254870 0.964029 0.167134
0.575795 0.983248 0.129952
0.846889 1.004865 0.126918
1.013212 1.004890 0.129390
-0.006681 -0.064525 0.390295
0.174042 -0.064723 0.389131
0.432849 -0.065325 0.377419
0.664616 -0.071086 0.384956
0.817771 -0.077599 0.383160
0.968685 -0.078155 0.380720
0.000000 0.187430 0.375537
0.128957 0.191820 0.395276
0.427000 0.171738 0.373599
0.663961 0.161735 0.375816
0.833197 0.149032 0.372401
0.983622 0.148108 0.369342
-0.001975 0.372968 0.381126
0.130900 0.371151 0.378500
0.429248 0.406243 0.393146
0.686396 0.391675 0.382466
0.853240 0.373099 0.366165
1.002545 0.368614 0.362059
0.016293 0.591745 0.371140
0.155281 0.587354 0.365818
0.376246 0.609216 0.359676
0.663939 0.640061 0.333555
0.860189 0.613723 0.314872
1.012187 0.609391 0.310770
0.028562 0.815845 0.337433
0.168226 0.814245 0.333786
0.339216 0.814729 0.324391
0.606389 0.838264 0.294519
0.856904 0.844689 0.281133
1.012505 0.841567 0.281550
0.030004 0.962506 0.309226
0.168260 0.962656 0.304119
0.267666 0.963693 0.289178
0.577012 0.982858 0.253024
0.847424 1.004665 0.251596
1.014956 1.004886 0.252484
-0.004266 -0.061073 0.585219
0.170128 -0.061253 0.585582
0.406417 -0.062332 0.591242
0.639823 -0.070167 0.585437
0.780998 -0.076765 0.579867
0.928049 -0.077365 0.576781
-0.001666 0.191929 0.593608
0.159569 0.190856 0.597440
0.387792 0.173404 0.586311
0.633069 0.163811 0.574501
0.785543 0.161057 0.566182
0.933837 0.160997 0.563224
0.016804 0.388672 0.602119
0.155468 0.385436 0.599008
0.396812 0.416531 0.628063
0.652263 0.391758 0.601439
0.822230 0.381528 0.590921
0.970455 0.376765 0.586038
0.028009 0.588276 0.602242
0.166950 0.584217 0.598104
0.360366 0.605047 0.614353
0.651691 0.634478 0.623262
0.857179 0.622669 0.612913
1.007707 0.618558 0.608911
0.031828 0.796724 0.590203
0.170921 0.795082 0.586475
0.329407 0.798139 0.582722
0.603708 0.830908 0.581986
0.856059 0.843755 0.553584
1.012617 0.840569 0.548822
0.028808 0.946925 0.567376
0.167494 0.947505 0.561940
0.262562 0.949620 0.551010
0.573382 0.981614 0.551634
0.846234 1.004299 0.510865
1.015494 1.004885 0.502493
-0.009004 -0.055975 0.723877
0.167353 -0.055821 0.727105
0.396413 -0.055726 0.739720
0.638086 -0.065586 0.740289
0.779953 -0.074911 0.741024
0.926394 -0.076502 0.740407
0.006301 0.186738 0.744239
0.164403 0.185666 0.749286
0.373447 0.173012 0.747487
0.628399 0.162505 0.743590
0.782868 0.161578 0.741547
0.930796 0.161688 0.740298
0.020594 0.393187 0.774529
0.158600 0.388655 0.772782
0.380851 0.416358 0.802076
0.631292 0.377034 0.776052
0.803810 0.365592 0.770027
0.950658 0.360868 0.766295
0.032634 0.592515 0.792714
0.172116 0.589660 0.792080
0.356268 0.606082 0.809272
0.628788 0.632523 0.821985
0.830586 0.628464 0.817085
0.978790 0.625427 0.813823
0.043655 0.788865 0.802055
0.183070 0.786963 0.799975
0.334465 0.786450 0.799069
0.584144 0.809477 0.812245
0.840756 0.829544 0.823467
0.997640 0.831630 0.824815
0.045169 0.938222 0.796595
0.184683 0.937975 0.793998
0.315173 0.937810 0.789147
0.549117 0.960890 0.799883
0.837389 0.990879 0.811288
1.007895 0.996212 0.809679
-0.009564 -0.057208 0.861128
0.166351 -0.057194 0.863994
0.394093 -0.056937 0.877106
0.637411 -0.063283 0.876872
0.781461 -0.068552 0.875637
0.928006 -0.069294 0.874474
0.006918 0.185228 0.883540
0.163612 0.183787 0.887905
0.371146 0.172038 0.887060
0.627439 0.162259 0.883575
0.782878 0.161644 0.881569
0.930803 0.161750 0.880308
0.020274 0.391811 0.914002
0.158019 0.387250 0.912137
0.378725 0.414444 0.941351
0.629248 0.374657 0.914846
0.803001 0.362841 0.908727
0.949845 0.358171 0.905004
0.032447 0.591349 0.932457
0.171893 0.588467 0.931769
0.354693 0.604413 0.948661
0.626597 0.631152 0.962561
0.829744 0.626652 0.960318
0.977587 0.623316 0.958155
0.043643 0.787207 0.946554
0.183102 0.785098 0.945956
0.333106 0.783520 0.947960
0.580882 0.806927 0.965512
0.828379 0.818337 0.972565
0.983902 0.816817 0.972046
0.045251 0.933747 0.948448
0.185248 0.933747 0.948448
0.324986 0.933796 0.948500
0.550697 0.957048 0.964681
0.815904 0.974810 0.973700
0.986145 0.976256 0.974812
